!!!!SEGMENT: pl-cz--iii-111--001-007_dankowski-adalbert--vesperae-d-et-misericordia.krn
!!!cenid: 18xx:796
!!!COM: Dankowski, Adalbert
!!!COM-rismID: pe30000793
!!!CDT: ~1760-~1836
!!!CNT: Polish
!!!OPR: Vesperae D
!!!OTL: Et misericordia
!!!OMV: 007
!!!PDT:
!!!AGN: Sacred; Vespers
!!!SMS-siglum: PL-CZ
!!!SMS-shelfmark: III-111
!!!SMS-shelfwork: 001-007 M
!!!SMS-variant:
!!!SMS-altvar:
!!!NIFC-rismSourceID: 300033580
!!!NIFC-rismChildID: 300033580
!!!NIFC-islandoraID: pl-cz:9975
!!!URL-pdf-islandora: https://repozytorium.nifc.pl/islandora/object/pl-cz%3A9975/datastream/PDF/view
!!!URL-scan: https://polish.musicsources.pl/pl/lokalizacje/galeria/rekopisy/970 @EN{Scan on Polish Music Sources Website} @PL{Skany w portalu Dziedzictwo Muzyki Polskiej w otwartym dostępie}
!!!IIIF:
!!!ONB-nifc: UWAGA: części Vesperae: Dixit Dominus, Laudate pueri, Laetatus sum, Nisi Dominus,
!!!AIN: 1 alto 1 bass 2 empty 1 organ 1 tenor 2 violn 1 vox
!!!key: G
**kern	**fba	**dynam	**kern	**dynam	**kern	**dynam	**kern	**kern	**kern	**text	**kern	**text	**kern	**kern
*part9	*part9	*part9	*part8	*part8	*part7	*part7	*part6	*part5	*part4	*part4	*part3	*part3	*part2	*part1
*staff9	*	*	*staff8	*	*staff7	*	*staff6	*staff5	*staff4	*staff4	*staff3	*staff3	*staff2	*staff1
*Iorgan	*	*	*Ivioln	*	*Ivioln	*	*Ibass	*Itenor	*Ialto	*	*Ivox	*	*Iempty	*Iempty
*I"Organo	*	*	*I"Violino Secondo	*	*I"Violino Primo	*	*I"Basso	*I"Tenore	*I"Alto	*	*I"Canto	*	*I"Cornu Secondo Ex D:	*I"Cornu Primo Ex D:
*I'org (=bc)	*	*	*I'vl 2	*	*I'vl 1	*	*I'B	*I'T	*I'A	*	*I'S	*	*I'cor 2	*I'cor 1
*ICklav	*	*	*ICstr	*	*ICstr	*	*ICvox	*ICvox	*ICvox	*	*ICvox	*	*ICbras	*ICbras
*	*	*	*	*	*	*	*	*	*	*	*	*	*ITrd-1c-2	*ITrd-1c-2
*clefF4	*	*	*clefG2	*	*clefG2	*	*clefF4	*clefC4	*clefC3	*	*clefC1	*	*clefG2	*clefG2
*k[f#]	*	*	*k[f#]	*	*k[f#]	*	*k[f#]	*k[f#]	*k[f#]	*	*k[f#]	*	*k[f#]	*k[f#]
*G:	*	*	*G:	*	*G:	*	*G:	*G:	*G:	*	*G:	*	*G:	*G:
*M3/4	*	*	*M3/4	*	*M3/4	*	*M3/4	*M3/4	*M3/4	*	*M3/4	*	*M3/4	*M3/4
*	*	*	*	*	*	*below	*	*	*	*	*	*	*	*
=1	=1	=1	=1	=1	=1	=1	=1	=1	=1	=1	=1	=1	=1	=1
*	*	*	*	*	*2\right	*	*	*	*	*	*	*	*	*
!LO:TX:a:t=Solo	!	!	!	!	!	!	!	!	!	!	!	!	!	!
!LO:TX:rj:a:t=andan&colon;	!	!	!LO:TX:a:t=andan&colon; affecluosso	!	!LO:TX:a:t=andan&colon; affecluoso	!	!	!	!LO:TX:a:t=Solo&colon;	!	!LO:TX:a:t=Solo	!	!	!
!LO:TX:rj:b:t=Et misericordia	!	!	!LO:TX:b:t=Et misericordia	!	!LO:TX:rj:b:t=Et misericordia	!	!LO:TX:a:t=Duo Tacet	!LO:TX:a:t=Duo Tacet	!LO:TX:rj:a:t=anda	!	!LO:TX:rj:a:t=andan&colon;	!	!LO:TX:a:t=Duo Tacet	!LO:TX:a:t=Duo Tacet
8G\L	.	.	2b/	.	2dd\	.	2.ryy	2.ryy	0.r	.	0.r	.	2.ryy	2.ryy
8G\	.	.	.	.	.	.	.	.	.	.	.	.	.	.
8G\	.	.	.	.	.	.	.	.	.	.	.	.	.	.
8G\	.	.	.	.	.	.	.	.	.	.	.	.	.	.
!	!	!	!	!	!LO:TX:a:t=Solo	!	!	!	!	!	!	!	!	!
8G\	.	.	16g/LL	.	16b\LL	.	.	.	.	.	.	.	.	.
.	.	.	16f#/	.	(16a\	.	.	.	.	.	.	.	.	.
8G\J	.	.	16g/	.	16b\)	.	.	.	.	.	.	.	.	.
.	.	.	16a/JJ	.	16cc\JJ	.	.	.	.	.	.	.	.	.
=2	=2	=2	=2	=2	=2	=2	=2	=2	=2	=2	=2	=2	=2	=2
*	*	*	*2\right	*	*	*	*	*	*	*	*	*	*	*
8G\L	.	.	2b\	.	2dd\	.	2.ryy	2.ryy	.	.	.	.	2.ryy	2.ryy
8G\	.	.	.	.	.	.	.	.	.	.	.	.	.	.
8G\	.	.	.	.	.	.	.	.	.	.	.	.	.	.
8G\	.	.	.	.	.	.	.	.	.	.	.	.	.	.
8G\	6 4	.	8cc\L	.	8ee\L	.	.	.	.	.	.	.	.	.
8G\J	3 2	.	8a\J	.	8ff#\J	.	.	.	.	.	.	.	.	.
=3	=3	=3	=3	=3	=3	=3	=3	=3	=3	=3	=3	=3	=3	=3
8G\L	3	.	(4.b\	.	(4.gg\	.	2.ryy	2.ryy	.	.	.	.	2.ryy	2.ryy
8G\	_	.	.	.	.	.	.	.	.	.	.	.	.	.
8G\	.	.	.	.	.	.	.	.	.	.	.	.	.	.
8G\	x	.	16a\LL	.	16ff#\LL	.	.	.	.	.	.	.	.	.
.	.	.	16b\JJ)	.	16gg\JJ)	.	.	.	.	.	.	.	.	.
8G\	6 4	.	8cc\L	.	16aa\LL	.	.	.	.	.	.	.	.	.
.	.	.	.	.	16gg\	.	.	.	.	.	.	.	.	.
8G\J	.	.	16dd\L	.	16ff#\	.	.	.	.	.	.	.	.	.
.	.	.	16cc\JJ	.	16ee\JJ	.	.	.	.	.	.	.	.	.
=4	=4	=4	=4	=4	=4	=4	=4	=4	=4	=4	=4	=4	=4	=4
!	!	!	!LO:SIC:v:t= tryle oznaczone literą t&colon;global	!	!LO:SIC:v:t= tryle oznaczone literą t&colon;global	!	!	!	!	!	!	!	!	!
4G\	_ _	.	8.ccT\L	.	(8.eeT\L	.	2.ryy	2.ryy	.	.	.	.	2.ryy	2.ryy
.	.	.	32b\LL	.	32dd\LL	.	.	.	.	.	.	.	.	.
.	.	.	32cc\JJJ	.	32ee\JJJ)	.	.	.	.	.	.	.	.	.
4GG/	5 3	.	8b\L	.	8dd\L	.	.	.	.	.	.	.	.	.
.	.	.	16gg\L	.	16bb\L	.	.	.	.	.	.	.	.	.
.	.	.	16ff#\JJ	.	16aa\JJ	.	.	.	.	.	.	.	.	.
8r	.	.	16ee\LL	.	16gg\LL	.	.	.	.	.	.	.	.	.
.	.	.	16dd\	.	16ff#\	.	.	.	.	.	.	.	.	.
8G\	.	.	16cc\	.	16ee\	.	.	.	.	.	.	.	.	.
.	.	.	16b\JJ	.	16dd\JJ	.	.	.	.	.	.	.	.	.
!	!	!	!LO:LB:g=original	!	!	!	!	!	!	!	!	!	!	!
=5	=5	=5	=5	=5	=5	=5	=5	=5	=5	=5	=5	=5	=5	=5
4D\	.	.	16b/LL	.	16dd\LL	.	2.ryy	2.ryy	0.r	.	0.r	.	2.ryy	2.ryy
.	.	.	16a/	.	16cc\	.	.	.	.	.	.	.	.	.
.	.	.	16a/	.	16cc\	.	.	.	.	.	.	.	.	.
.	.	.	16g/JJ	.	16b\JJ	.	.	.	.	.	.	.	.	.
!	!	!	!	!	!LO:LB:g=original	!	!	!	!	!	!	!	!	!
!	!	!	!LO:TX:t=P:problem=mixed beam	!	!	!	!	!	!	!	!	!	!	!
4D\	.	.	8a/L	.	8cc\L	.	.	.	.	.	.	.	.	.
.	.	.	16ff#\L	.	16aa\L	.	.	.	.	.	.	.	.	.
.	.	.	16ee\JJ	.	16gg\JJ	.	.	.	.	.	.	.	.	.
8r	.	.	16dd\LL	.	16ff#\LL	.	.	.	.	.	.	.	.	.
.	.	.	16cc\	.	16ee\	.	.	.	.	.	.	.	.	.
8F#\	6 5	.	16b\	.	16dd\	.	.	.	.	.	.	.	.	.
.	.	.	16a\JJ	.	16cc\JJ	.	.	.	.	.	.	.	.	.
!LO:LB:g=original	!	!	!	!	!	!	!	!	!	!	!	!	!	!
=6	=6	=6	=6	=6	=6	=6	=6	=6	=6	=6	=6	=6	=6	=6
4G\	.	.	16a/LL	.	16cc\LL	.	2.ryy	2.ryy	.	.	.	.	2.ryy	2.ryy
.	.	.	16g/	.	16b\	.	.	.	.	.	.	.	.	.
.	.	.	16g/	.	16b\	.	.	.	.	.	.	.	.	.
.	.	.	16f#/JJ	.	16a\JJ	.	.	.	.	.	.	.	.	.
4GG/	.	.	8g/L	.	8b\L	.	.	.	.	.	.	.	.	.
.	.	.	16g/L	.	16b\L	.	.	.	.	.	.	.	.	.
.	.	.	16a/JJ	.	16cc\JJ	.	.	.	.	.	.	.	.	.
8r	.	.	8b\L	.	16dd\LL	.	.	.	.	.	.	.	.	.
.	.	.	.	.	16ee\	.	.	.	.	.	.	.	.	.
8G\	.	.	8b\J	.	16ff#\	.	.	.	.	.	.	.	.	.
.	.	.	.	.	16gg\JJ	.	.	.	.	.	.	.	.	.
=7	=7	=7	=7	=7	=7	=7	=7	=7	=7	=7	=7	=7	=7	=7
8c\L	6	.	8cc\L	.	16ffn\LL	.	2.ryy	2.ryy	.	.	.	.	2.ryy	2.ryy
.	.	.	.	.	16ee\	.	.	.	.	.	.	.	.	.
8c\	.	.	16ee\L	.	16ccc\	.	.	.	.	.	.	.	.	.
.	.	.	16cc\JJ	.	16aa\JJ	.	.	.	.	.	.	.	.	.
8d\	4	.	4b\	.	4gg\	.	.	.	.	.	.	.	.	.
!LO:TX:t=P:problem=mixed beam	!	!	!	!	!	!	!	!	!	!	!	!	!	!
8d\	.	.	.	.	.	.	.	.	.	.	.	.	.	.
8D/	3	.	4a\	.	4ff#X\	.	.	.	.	.	.	.	.	.
8D/J	.	.	.	.	.	.	.	.	.	.	.	.	.	.
=8	=8	=8	=8	=8	=8	=8	=8	=8	=8	=8	=8	=8	=8	=8
8G\L	.	.	4.b\	.	4.gg\	.	2.ryy	2.ryy	.	.	.	.	2.ryy	2.ryy
8G\	.	.	.	.	.	.	.	.	.	.	.	.	.	.
8G\	.	.	.	.	.	.	.	.	.	.	.	.	.	.
8G\	.	.	16a\LL	.	16aa\LL	.	.	.	.	.	.	.	.	.
.	.	.	16b\JJ	.	16gg\JJ	.	.	.	.	.	.	.	.	.
.	.	.	8qee/	.	8qgg/	.	.	.	.	.	.	.	.	.
8G\	7n 5	.	8dd\L	.	8ffn\L	.	.	.	.	.	.	.	.	.
8G\J	_ _	.	16cc\L	.	16ee\L	.	.	.	.	.	.	.	.	.
.	.	.	16dd\JJ	.	16ff\JJ	.	.	.	.	.	.	.	.	.
!	!	!	!LO:LB:g=original	!	!	!	!	!	!	!	!	!	!	!
=9	=9	=9	=9	=9	=9	=9	=9	=9	=9	=9	=9	=9	=9	=9
8G\L	6 4	.	8cc\	.	8ee\	.	2.ryy	2.ryy	0.r	.	0.r	.	2.ryy	2.ryy
!	!	!	!	!	!	!LO:DY:b:t=sf&colon;	!	!	!	!	!	!	!	!
8G\	_ _	.	4ee\	sfz	(4ccc\	sf	.	.	.	.	.	.	.	.
8G\	.	.	.	.	.	.	.	.	.	.	.	.	.	.
8G\	x	.	8cc\	.	8aa\)	.	.	.	.	.	.	.	.	.
!	!	!	!	!	!LO:LB:g=original	!	!	!	!	!	!	!	!	!
.	.	.	8qb/	.	8qgg/	.	.	.	.	.	.	.	.	.
8G\	7# 2	.	8a/L	.	8ff#X\L	.	.	.	.	.	.	.	.	.
8G\J	_ _	.	16g/L	.	16ee\L	.	.	.	.	.	.	.	.	.
.	.	.	16a/JJ	.	16ff#\JJ	.	.	.	.	.	.	.	.	.
=10	=10	=10	=10	=10	=10	=10	=10	=10	=10	=10	=10	=10	=10	=10
!	!	!	!	!LO:DY:t=p&colon;	!	!LO:DY:t=p&colon;	!	!	!	!	!	!	!	!
8G\L	2	.	4.b\	p	(4.gg\	p	2.ryy	2.ryy	.	.	.	.	2.ryy	2.ryy
8G\	_	.	.	.	.	.	.	.	.	.	.	.	.	.
8G\	x	.	.	.	.	.	.	.	.	.	.	.	.	.
8G\	.	.	16a\LL	.	16aa\LL	.	.	.	.	.	.	.	.	.
.	.	.	16b\JJ	.	16gg\JJ)	.	.	.	.	.	.	.	.	.
.	.	.	8qee/	.	8qgg/	.	.	.	.	.	.	.	.	.
8G\	7n 5	.	8dd\L	.	8ffn\L	.	.	.	.	.	.	.	.	.
8G\J	_ _	.	16cc\L	.	16ee\L	.	.	.	.	.	.	.	.	.
.	.	.	16dd\JJ	.	16ff\JJ	.	.	.	.	.	.	.	.	.
=11	=11	=11	=11	=11	=11	=11	=11	=11	=11	=11	=11	=11	=11	=11
8G\L	6 4	.	8cc\	.	8ee\	.	2.ryy	2.ryy	.	.	.	.	2.ryy	2.ryy
8G\	.	.	4ee\	sfz	4ccc\	sf	.	.	.	.	.	.	.	.
8G\	_ _	.	.	.	.	.	.	.	.	.	.	.	.	.
8G\	x	.	8cc\	.	8aa\	.	.	.	.	.	.	.	.	.
.	.	.	8qb/	.	8qgg/	.	.	.	.	.	.	.	.	.
8G\	4# 2	.	8a/L	.	8ff#X\L	.	.	.	.	.	.	.	.	.
8G\J	.	.	16g/L	.	16ee\L	.	.	.	.	.	.	.	.	.
.	.	.	16a/JJ	.	16ff#\JJ	.	.	.	.	.	.	.	.	.
=12	=12	=12	=12	=12	=12	=12	=12	=12	=12	=12	=12	=12	=12	=12
4G\	_ _	.	(4a/	.	(4ff#\	.	2.ryy	2.ryy	.	.	.	.	2.ryy	2.ryy
4GG/	3	.	4b/)	.	4gg\)	.	.	.	.	.	.	.	.	.
!	!	!LO:DY:a:t=pio&colon;	!	!	!	!	!	!	!	!	!	!	!	!
4r	.	p	4r	.	4r	.	.	.	.	.	.	.	.	.
=13	=13	=13	=13	=13	=13	=13	=13	=13	=13	=13	=13	=13	=13	=13
*	*	*	*	*	*	*	*	*	*2\right	*	*2\right	*	*	*
!	!	!	!	!LO:DY:a:t=p&colon;	!	!LO:DY:a	!	!	!	!	!	!	!	!
8G\L	.	.	2b/	p	2dd\	p	2.ryy	2.ryy	2b\	Et	2dd\	Et	2.ryy	2.ryy
8G\	.	.	.	.	.	.	.	.	.	.	.	.	.	.
8G\	.	.	.	.	.	.	.	.	.	.	.	.	.	.
8G\	.	.	.	.	.	.	.	.	.	.	.	.	.	.
8G\	.	.	16g/LL	.	16b\LL	.	.	.	16g\LL	.	16b\LL	.	.	.
.	.	.	16f#/	.	16a\	.	.	.	16f#\JJ	.	16a\JJ	.	.	.
8G\J	.	.	16g/	.	16b\	.	.	.	16g\LL	mi-	16b\LL	mi-	.	.
.	.	.	16a/JJ	.	16cc\JJ	.	.	.	16a\JJ	.	16cc\JJ	.	.	.
!	!	!	!LO:LB:g=original	!	!	!	!	!	!	!	!	!	!	!
=14	=14	=14	=14	=14	=14	=14	=14	=14	=14	=14	=14	=14	=14	=14
8G\L	.	.	2b\	.	2dd\	.	2.ryy	2.ryy	2b\	-se-	2dd\	-se-	2.ryy	2.ryy
8G\	.	.	.	.	.	.	.	.	.	.	.	.	.	.
8G\	.	.	.	.	.	.	.	.	.	.	.	.	.	.
8G\	.	.	.	.	.	.	.	.	.	.	.	.	.	.
8G\	6 4	.	8cc\L	.	8ee\L	.	.	.	8cc\L	-ri-	8ee\L	-ri-	.	.
8G\J	7 2	.	8a\J	.	8ff#\J	.	.	.	8a\J	.	8ff#\J	.	.	.
!	!	!	!	!	!LO:LB:g=original	!	!	!	!	!	!	!	!	!
=15	=15	=15	=15	=15	=15	=15	=15	=15	=15	=15	=15	=15	=15	=15
8G\L	8 3	.	(4.b\	.	(4.gg\	.	2.ryy	2.ryy	2b\	-cor-	(4.gg\	-cor-	2.ryy	2.ryy
8G\	_ _	.	.	.	.	.	.	.	.	.	.	.	.	.
8G\	.	.	.	.	.	.	.	.	.	.	.	.	.	.
8G\	x	.	16a\LL	.	16ff#\LL	.	.	.	.	.	16ff#\LL)	.	.	.
.	.	.	16b\JJ)	.	16gg\JJ)	.	.	.	.	.	16gg\JJ	.	.	.
8G\	6 4	.	8cc\L	.	16aa\LL	.	.	.	8cc\	-diſ-	16aa\LL	-diſ-	.	.
.	.	.	.	.	16gg\	.	.	.	.	.	16gg\JJ	.	.	.
8G\J	.	.	16dd\L	.	16ff#\	.	.	.	16dd\LL	-a	16ff#\LL	-a	.	.
.	_ _	.	16cc\JJ	.	16ee\JJ	.	.	.	16cc\JJ	.	16ee\JJ	.	.	.
=16	=16	=16	=16	=16	=16	=16	=16	=16	=16	=16	=16	=16	=16	=16
4G\	x	.	(8.ccT\L	.	(8.eeT\L	.	2.ryy	2.ryy	8.cc\L	e-	8.ee\L	e-	2.ryy	2.ryy
.	.	.	32b\LL	.	32dd\LL	.	.	.	32b\LL	.	32dd\LL	.	.	.
.	.	.	32cc\JJJ)	.	32ee\JJJ)	.	.	.	32cc\JJJ	.	32ee\JJJ	.	.	.
4GG/	3	.	8b\L	.	8dd\L	.	.	.	4b\	-jus	4dd\	-jus	.	.
.	.	.	16gg\L	.	16bb\L	.	.	.	.	.	.	.	.	.
.	.	.	16ff#\JJ	.	16aa\JJ	.	.	.	.	.	.	.	.	.
!LO:LB:g=original	!	!	!	!	!	!	!	!	!LO:LB:g=original	!	!LO:LB:g=original	!	!	!
8r	.	.	16ee\LL	.	16gg\LL	.	.	.	8b\	a	16gg\LL	a	.	.
.	.	.	16dd\	.	16ff#\	.	.	.	.	.	16ff#\JJ	.	.	.
8G\	.	.	16cc\	.	16ee\	.	.	.	8b\	pro-	16ee\LL	pro-	.	.
.	.	.	16b\JJ	.	16dd\JJ	.	.	.	.	.	16dd\JJ	.	.	.
=17	=17	=17	=17	=17	=17	=17	=17	=17	=17	=17	=17	=17	=17	=17
4D\	.	.	16b/LL	.	16dd\LL	.	2.ryy	2.ryy	16b\LL	-ge-	16dd\LL	-ge-	2.ryy	2.ryy
.	.	.	16a/	.	16cc\	.	.	.	16a\JJ	.	16cc\JJ	.	.	.
.	.	.	16a/	.	16cc\	.	.	.	16a\LL	-ni-	16cc\LL	-ni-	.	.
.	.	.	16g/JJ	.	16b\JJ	.	.	.	16g\JJ	.	16b\JJ	.	.	.
4D\	.	.	8a\L	.	8cc\L	.	.	.	4a\	-e	4cc\	-e	.	.
.	.	.	16ff#\L	.	16aa\L	.	.	.	.	.	.	.	.	.
.	.	.	16ee\JJ	.	16gg\JJ	.	.	.	.	.	.	.	.	.
8r	.	.	16dd\LL	.	16ff#\LL	.	.	.	8a\	in	16ff#\LL	in	.	.
.	.	.	16cc\	.	16ee\	.	.	.	.	.	16ee\JJ	.	.	.
8F#\	6 5	.	16b\	.	16dd\	.	.	.	8a\	pro-	16dd\LL	pro-	.	.
.	.	.	16a\JJ	.	16cc\JJ	.	.	.	.	.	16cc\JJ	.	.	.
!	!	!	!LO:LB:g=original	!	!	!	!	!	!	!	!	!	!	!
=18	=18	=18	=18	=18	=18	=18	=18	=18	=18	=18	=18	=18	=18	=18
4G\	.	.	16a/LL	.	16cc\LL	.	2.ryy	2.ryy	16a\LL	-ge-	16cc\LL	-ge-	2.ryy	2.ryy
.	.	.	16g/	.	16b\	.	.	.	16g\JJ	.	16b\JJ	.	.	.
.	.	.	16g/	.	16b\	.	.	.	16g\LL	-ni-	16b\LL	-ni-	.	.
.	.	.	16f#/JJ	.	16a\JJ	.	.	.	16f#\JJ	.	16a\JJ	.	.	.
4GG/	.	.	8g/L	.	8b\L	.	.	.	4g\	-es	4b\	-es	.	.
.	.	.	16b/L	.	16gg\L	.	.	.	.	.	.	.	.	.
.	.	.	16dd/JJ	.	16ff#\JJ	.	.	.	.	.	.	.	.	.
8r	.	.	16cc/LL	.	16ee\LL	.	.	.	8r	.	8r	.	.	.
.	.	.	16b/	.	16dd\	.	.	.	.	.	.	.	.	.
8G\	.	.	16a/	.	16cc\	.	.	.	8b\	ti-	8dd\	ti-	.	.
.	.	.	16g/JJ	.	16b\JJ	.	.	.	.	.	.	.	.	.
!	!	!	!	!	!LO:LB:g=original	!	!	!	!	!	!	!	!	!
=19	=19	=19	=19	=19	=19	=19	=19	=19	=19	=19	=19	=19	=19	=19
8C/L	6	.	4.a/	.	4.cc\	.	2.ryy	2.ryy	(4.a\	-men-	(4.cc\	-men-	2.ryy	2.ryy
8C/	_	.	.	.	.	.	.	.	.	.	.	.	.	.
8C/	.	.	.	.	.	.	.	.	.	.	.	.	.	.
8C/	x	.	16b/LL	.	16dd\LL	.	.	.	16b\LL)	.	16dd\LL)	.	.	.
.	.	.	16a/JJ	.	16cc\JJ	.	.	.	16a\JJ	.	16cc\JJ	.	.	.
8C#X/	5	.	16a/LL	.	16cc\LL	.	.	.	16a\LL	-ti-	16cc\LL	-ti-	.	.
.	.	.	16g/	.	16b\	.	.	.	16g\JJ	.	16b\JJ	.	.	.
8C#/J	_	.	16f#/	.	16a\	.	.	.	16f#\LL	-bus	16a\LL	-bus	.	.
.	x	.	16g/JJ	.	16b\JJ	.	.	.	16g\JJ	.	16b\JJ	.	.	.
!	!	!	!	!	!	!	!	!	!LO:LB:g=original	!	!LO:LB:g=original	!	!	!
=20	=20	=20	=20	=20	=20	=20	=20	=20	=20	=20	=20	=20	=20	=20
8D\L	4	.	8.g/L	.	8.b/L	.	2.ryy	2.ryy	8.g\L	e-	8.b\L	e-	2.ryy	2.ryy
16D\L	_	.	.	.	.	.	.	.	.	.	.	.	.	.
16C#X\JJ	3	.	32f#/LL	.	32a/LL	.	.	.	32f#\LL	.	32a\LL	.	.	.
.	.	.	32g/JJJ	.	32b/JJJ	.	.	.	32g\JJJ	.	32b\JJJ	.	.	.
8D\L	.	.	4f#/	.	4a/	.	.	.	4f#\	-um	4a\	-um	.	.
8d\	.	.	.	.	.	.	.	.	.	.	.	.	.	.
!	!	!	!	!	!LO:TX:b:t=Verte	!	!	!	!	!	!	!	!	!
8A\	.	.	4r	.	4r	.	.	.	4r	.	4r	.	.	.
8F#\J	.	.	.	.	.	.	.	.	.	.	.	.	.	.
!LO:LB:g=original	!	!	!	!	!LO:PB:g=original	!	!	!	!	!	!	!	!	!
=21	=21	=21	=21	=21	=21	=21	=21	=21	=21	=21	=21	=21	=21	=21
8D\L	.	.	(4.f#/	.	4.a/	.	2.ryy	2.ryy	(4.f#\	Fe-	(4.a\	Fe-	2.ryy	2.ryy
8D\	.	.	.	.	.	.	.	.	.	.	.	.	.	.
8D\	.	.	.	.	.	.	.	.	.	.	.	.	.	.
8D\	.	.	8d/)	.	8f#/	.	.	.	8d\)	.	8f#/)	.	.	.
.	.	.	8qf#/	.	.	.	.	.	.	.	.	.	.	.
8D\	4 2	.	8e/L	.	8g/L	.	.	.	8e\	-cit	8g\	-cit	.	.
8D\J	_ _	.	16d/L	.	16f#/L	.	.	.	16d\LL	po-	16f#\LL	po-	.	.
.	.	.	16e/JJ	.	16g/JJ	.	.	.	16e\JJ	.	16g\JJ	.	.	.
!	!	!	!LO:LB:g=original	!	!	!	!	!	!	!	!	!	!	!
=22	=22	=22	=22	=22	=22	=22	=22	=22	=22	=22	=22	=22	=22	=22
*2\right	*	*	*	*	*	*	*	*	*	*	*	*	*	*
*tremolo	*	*	*	*	*	*	*	*	*	*	*	*	*	*
8D\L	8 3	.	16f#/LL	.	16a/LL	.	2.ryy	2.ryy	16f#\LL	-ten-	16a\LL	-ten-	2.ryy	2.ryy
.	.	.	(16g/	.	16b/	.	.	.	16g\JJ	.	16b\JJ	.	.	.
8D\	.	.	16f#/	.	16a/	.	.	.	16f#\LL	-ti-	16a\LL	-ti-	.	.
.	.	.	16e/JJ	.	16g/JJ	.	.	.	16e\JJ	.	16g\JJ	.	.	.
8D\	.	.	8d/L)	.	8f#/L	.	.	.	4d\	-am	4f#/	-am	.	.
8D\	.	.	8d/J	.	8f#/J	.	.	.	.	.	.	.	.	.
8D\	.	.	16d/LL	.	16f#/LL	.	.	.	4r	.	4r	.	.	.
.	.	.	16c#X/	.	16e/	.	.	.	.	.	.	.	.	.
8D\J	.	.	16d/	.	16f#/	.	.	.	.	.	.	.	.	.
.	.	.	16e/JJ	.	16g/JJ	.	.	.	.	.	.	.	.	.
*Xtremolo	*	*	*	*	*	*	*	*	*	*	*	*	*	*
=23	=23	=23	=23	=23	=23	=23	=23	=23	=23	=23	=23	=23	=23	=23
8D\L	.	.	(4.f#/	.	4.a/	.	2.ryy	2.ryy	4.f#\	in	4.a\	in	2.ryy	2.ryy
8D\	.	.	.	.	.	.	.	.	.	.	.	.	.	.
8D\	.	.	.	.	.	.	.	.	.	.	.	.	.	.
8D\	.	.	8d/)	.	8f#/	.	.	.	8d\	bra-	8f#/	bra-	.	.
.	.	.	8qf#/	.	.	.	.	.	.	.	.	.	.	.
8D\	4 2	.	8e/L	.	8g/L	.	.	.	8e\	-chi-	8g\	-chi-	.	.
8D\J	_ _	.	16d/L	.	16f#/L	.	.	.	16d\LL	-o	16f#\LL	-o	.	.
.	.	.	16e/JJ	.	16g/JJ	.	.	.	16e\JJ	.	16g\JJ	.	.	.
!	!	!	!	!	!	!	!	!	!LO:LB:g=original	!	!LO:LB:g=original	!	!	!
=24	=24	=24	=24	=24	=24	=24	=24	=24	=24	=24	=24	=24	=24	=24
*tremolo	*	*	*	*	*	*	*	*	*	*	*	*	*	*
!LO:TX:b:t=Verte	!	!	!	!	!	!	!	!	!	!	!	!	!	!
8D\L	3	.	16f#/LL	.	16a/LL	.	2.ryy	2.ryy	16f#\LL	Su-	16a\LL	Su-	2.ryy	2.ryy
.	_	.	16g/	.	16b/	.	.	.	16g\	.	16b\	.	.	.
8D\	.	.	16f#/	.	16a/	.	.	.	16f#\	.	16a\	.	.	.
.	x	.	16e/JJ	.	16g/JJ	.	.	.	16e\JJ	.	16g\JJ	.	.	.
8D\	.	.	8d/L	.	8f#/L	.	.	.	4d\	-o	4f#/	-o	.	.
8D\	.	.	16d/L	.	16f#/L	.	.	.	.	.	.	.	.	.
.	.	.	16e/JJ	.	16g/JJ	.	.	.	.	.	.	.	.	.
8D\	.	.	8f#/L	.	16a\LL	.	.	.	8r	.	8r	.	.	.
.	.	.	.	.	16b\	.	.	.	.	.	.	.	.	.
8D\J	.	.	8f#/J	.	16cc#X\	.	.	.	8f#\	diſ-	8dd\	diſ-	.	.
.	.	.	.	.	16dd\JJ	.	.	.	.	.	.	.	.	.
*Xtremolo	*	*	*	*	*	*	*	*	*	*	*	*	*	*
!LO:PB:g=original	!	!	!	!	!LO:LB:g=original	!	!	!	!	!	!	!	!	!
=25	=25	=25	=25	=25	=25	=25	=25	=25	=25	=25	=25	=25	=25	=25
8D\L	.	.	8f#/L	.	8dd\L	.	2.ryy	2.ryy	8f#\L	-per-	8dd\L	-per-	2.ryy	2.ryy
8D\	.	.	16e/L	.	16cc#X\L	.	.	.	16e\L	.	16cc#X\L	.	.	.
.	.	.	16f#/JJ	.	16dd\JJ	.	.	.	16f#\JJ	.	16dd\JJ	.	.	.
8G\	6	.	4g/	.	4ee\	.	.	.	4g\	-sit	4ee\	-sit	.	.
8G\	_	.	.	.	.	.	.	.	.	.	.	.	.	.
8A\	#	.	4e/	.	4cc#\	.	.	.	4e\	Su-	4cc#\	su-	.	.
8A\J	.	.	.	.	.	.	.	.	.	.	.	.	.	.
!	!	!	!LO:LB:g=original	!	!	!	!	!	!	!	!	!	!	!
=26	=26	=26	=26	=26	=26	=26	=26	=26	=26	=26	=26	=26	=26	=26
*tremolo	*	*	*	*	*	*	*	*	*	*	*	*	*	*
8D\L	.	.	16f#/LL	.	16dd\LL	.	2.ryy	2.ryy	16f#\LL	-per-	16dd\LL	-per-	2.ryy	2.ryy
!	!	!	!	!	!LO:SIC:s:v=16cc#	!	!	!	!	!	!LO:SIC:s:v=16cc#	!	!	!
.	.	.	16e/	.	16cc\	.	.	.	16e\	.	16cc\	.	.	.
8D\	.	.	16f#/	.	16dd\	.	.	.	16f#\	.	16dd\	.	.	.
.	.	.	16g/JJ	.	16ee\JJ	.	.	.	16g\JJ	.	16ee\JJ	.	.	.
8D\	.	.	8a/L	.	8ff#\L	.	.	.	4a\	-bos	4ff#\	-bos	.	.
8D\	.	.	8a/J	.	8ff#\J	.	.	.	.	.	.	.	.	.
8D\	.	.	16b/LL	.	16gg\LL	.	.	.	8r	.	8r	.	.	.
.	.	.	16a/	.	16ff#\	.	.	.	.	.	.	.	.	.
8D\J	.	.	16g/	.	16ee\	.	.	.	[8f#\	men-	[<8dd\	men-	.	.
.	.	.	16f#/JJ	.	16dd\JJ	.	.	.	.	.	.	.	.	.
*Xtremolo	*	*	*	*	*	*	*	*	*	*	*	*	*	*
=27	=27	=27	=27	=27	=27	=27	=27	=27	=27	=27	=27	=27	=27	=27
8D\L	.	.	8f#/L	.	8dd\L	.	2.ryy	2.ryy	8f#\]	.	8dd\]	.	2.ryy	2.ryy
8D\	.	.	16e/L	.	16cc#X\L	.	.	.	16e\LL	-te	16cc#X\LL	-te	.	.
.	.	.	16f#/JJ	.	16dd\JJ	.	.	.	16f#\JJ	.	16dd\JJ	.	.	.
8G\	6	.	4g/	.	4ee\	.	.	.	4g\	cor-	4ee\	cor-	.	.
8G\	_	.	.	.	.	.	.	.	.	.	.	.	.	.
8A\	#	.	4e/	.	4cc#\	.	.	.	4d\	-dis	4cc#\	-dis	.	.
8A\J	_	.	.	.	.	.	.	.	.	.	.	.	.	.
!	!	!	!	!	!	!	!	!	!LO:LB:g=original	!	!LO:LB:g=original	!	!	!
=28	=28	=28	=28	=28	=28	=28	=28	=28	=28	=28	=28	=28	=28	=28
4D\	x	.	8.f#/L	.	8.dd\L	.	2.ryy	2.ryy	8.f#\L	Su-	8.dd\L	su-	2.ryy	2.ryy
.	.	.	16e/Jk	.	16cc#X\Jk	.	.	.	16e\Jk	.	16cc#X\Jk	.	.	.
!	!	!	!LO:TX:t=P:problem=mixed beam	!	!	!	!	!	!	!LO:MO:mod=i	!	!LO:MO:mod=i	!	!
4D\	.	.	8f#/L	.	8dd\L	.	.	.	8f#\	-is	8dd\	-is	.	.
.	.	.	16dd\L	.	16ff#\L	.	.	.	16dd\LL	diſ-	16ff#\LL	diſ-	.	.
.	.	.	16cc#X\JJ	.	16ee\JJ	.	.	.	16cc#X\JJ	.	16ee\JJ	.	.	.
8r	.	.	16b/LL	.	16dd\LL	.	.	.	16b\LL	-per-	16dd\LL	-per-	.	.
.	.	.	16a/	.	16cc#\	.	.	.	16a\	.	16cc#\	.	.	.
8D#X\	6 5	.	16g/	.	16b\	.	.	.	16g\	.	16b\	.	.	.
.	.	.	16f#/JJ	.	16a\JJ	.	.	.	16f#\JJ	.	16a\JJ	.	.	.
=29	=29	=29	=29	=29	=29	=29	=29	=29	=29	=29	=29	=29	=29	=29
4E\	4	.	8.f#/L	.	8.a/L	.	2.ryy	2.ryy	8.f#\L	.	8.a\L	.	2.ryy	2.ryy
.	.	.	(32e/LL	.	32g/LL	.	.	.	32e\LL	.	32g\LL	.	.	.
.	.	.	32f#/JJJ	.	32a/JJJ	.	.	.	32f#\JJJ	.	32a\JJJ	.	.	.
!	!	!	!	!	!LO:LB:g=original	!	!	!	!	!	!	!	!	!
!	!	!	!	!	!LO:TX:t=P:problem=mixed beam	!	!	!	!	!	!	!	!	!
4EE/	3	.	8e/L)	.	8g/L	.	.	.	8e\	-sit	8g\	-sit	.	.
.	.	.	16cc#X/L	.	16ee\L	.	.	.	16cc#X\LL	Su-	16ee\LL	Su-	.	.
.	.	.	16b/JJ	.	16dd\JJ	.	.	.	16b\JJ	.	16dd\JJ	.	.	.
8r	.	.	16a/LL	.	16cc#X/LL	.	.	.	16a\LL	-per-	16cc#X\LL	-per-	.	.
.	.	.	16g/	.	16b/	.	.	.	16g\	.	16b\	.	.	.
8C#X/	6 5	.	16f#/	.	16a/	.	.	.	16f#\	.	16a\	.	.	.
.	.	.	16e/JJ	.	16g/JJ	.	.	.	16e\JJ	.	16g\JJ	.	.	.
!	!	!	!LO:LB:g=original	!	!	!	!	!	!	!	!	!	!	!
=30	=30	=30	=30	=30	=30	=30	=30	=30	=30	=30	=30	=30	=30	=30
4Dn\	4	.	8.e/L	.	8.g/L	.	2.ryy	2.ryy	8.e\L	.	8.g/L	.	2.ryy	2.ryy
.	.	.	32d/LL	.	32f#/LL	.	.	.	32d\LL	.	32f#/LL	.	.	.
.	.	.	32e/JJJ	.	32g/JJJ	.	.	.	32e\JJJ	.	32g/JJJ	.	.	.
4DD/	3	.	8d/L	.	8f#/L	.	.	.	8d\	-bos	8f#/	-bos	.	.
!	!	!	!	!	!	!	!	!	!LO:SIC:v:t= brak zgodniości tekstu S/A	!	!	!	!	!
!	!	!	!	!	!	!	!	!	!	!LO:MO:mod=men-	!	!	!	!
.	.	.	16d/L	.	16f#/L	.	.	.	16d\LL	cor-	16f#/LL	men-	.	.
.	.	.	16e/JJ	.	16g/JJ	.	.	.	16e\JJ	.	16g/JJ	.	.	.
!LO:LB:g=original	!	!	!	!	!	!	!	!	!	!	!	!	!	!
8r	.	.	16f#/LL	.	16a\LL	.	.	.	16f#\LL	.	16a\LL	.	.	.
.	.	.	16g/	.	16b\	.	.	.	16g\	.	16b\	.	.	.
!	!	!	!	!	!	!	!	!	!	!LO:MO:mod=te	!	!	!	!
8D\	.	.	16a/	.	16cc#X\	.	.	.	16a\	.	16cc#X\	-te	.	.
.	.	.	16f#/JJ	.	16dd\JJ	.	.	.	16f#\JJ	.	16dd\JJ	.	.	.
!	!	!	!	!	!	!	!	!	!LO:LB:g=original	!	!LO:LB:g=original	!	!	!
=31	=31	=31	=31	=31	=31	=31	=31	=31	=31	=31	=31	=31	=31	=31
!	!	!	!	!	!	!	!	!	!	!LO:MO:mod=cor-	!	!	!	!
8G\L	6	.	8g/L	.	16ee\LL	.	2.ryy	2.ryy	16g\LL	.	16ee\LL	cor-	2.ryy	2.ryy
.	.	.	.	.	16ff#\	.	.	.	16a\JJ	.	16ff#\JJ	.	.	.
8G\	.	.	16b/L	.	16gg\	.	.	.	16b\LL	-dis	16gg\LL	-dis	.	.
.	.	.	16g/JJ	.	16ee\JJ	.	.	.	16g\JJ	.	16ee\JJ	.	.	.
8A\	4	.	4f#/	.	4dd\	.	.	.	4f#\	Su-	4dd\	su-	.	.
!LO:TX:t=P:problem=mixed beam	!	!	!	!	!	!	!	!	!	!	!	!	!	!
8A\	.	.	.	.	.	.	.	.	.	.	.	.	.	.
8AA/	#	.	4e/	.	4cc#X\	.	.	.	4e\	.	4cc#X\	.	.	.
8AA/J	.	.	.	.	.	.	.	.	.	.	.	.	.	.
=32	=32	=32	=32	=32	=32	=32	=32	=32	=32	=32	=32	=32	=32	=32
!	!	!	!	!	!	!	!	!	!	!LO:MO:mod=i	!	!LO:MO:mod=i	!	!
8D\L	.	.	4.f#/	.	4.dd\	.	2.ryy	2.ryy	4.f#\	-is,	4.dd\	-is	2.ryy	2.ryy
8D\	.	.	.	.	.	.	.	.	.	.	.	.	.	.
8D\	.	.	.	.	.	.	.	.	.	.	.	.	.	.
!	!	!	!	!	!LO:SIC:s:v=16cc#	!	!	!	!	!	!LO:SIC:s:v=16cc#	!	!	!
8D\	.	.	16e/LL	.	16cc\LL	.	.	.	16e\LL	Su-	16cc\LL	Su-	.	.
.	.	.	16f#/JJ	.	16dd\JJ	.	.	.	16f#\JJ	.	16dd\JJ	.	.	.
.	.	.	8qa/	.	8qff#/	.	.	.	.	.	.	.	.	.
8D\	4 2	.	8g/L	.	8ee\L	.	.	.	8g\	-per-	8ee\	-per-	.	.
8D\J	_ _	.	16f#/L	.	16cc\L	.	.	.	16f#\LL	-bos	16dd\LL	-bos	.	.
!	!	!	!	!	!	!	!	!	!LO:TX:b:t=Verte	!	!	!	!	!
.	.	.	16g/JJ	.	16ee\JJ	.	.	.	16g\JJ	.	16ee\JJ	.	.	.
!	!	!	!	!	!	!	!	!	!LO:PB:g=original	!	!	!	!	!
=33	=33	=33	=33	=33	=33	=33	=33	=33	=33	=33	=33	=33	=33	=33
8D\L	3	.	(4.a/	.	(4.ff#\	.	2.ryy	2.ryy	4.a\	men-	4.ff#\	men-	2.ryy	2.ryy
8D\	.	.	.	.	.	.	.	.	.	.	.	.	.	.
8F#\	.	.	.	.	.	.	.	.	.	.	.	.	.	.
8F#\	.	.	8f#/)	.	8dd\)	.	.	.	8f#\	-te	8dd\	-te	.	.
.	.	.	8qa/	.	8qff#/	.	.	.	.	.	.	.	.	.
8A\	#	.	8g/L	.	8ee\L	.	.	.	8g\L	cor-	8ee\L	cor-	.	.
8A\J	.	.	16f#/L	.	16dd\L	.	.	.	16f#\L	.	16dd\L	.	.	.
.	.	.	16e/JJ	.	16cc#X\JJ	.	.	.	16e\JJ	.	16cc#X\JJ	.	.	.
!	!	!	!	!	!LO:LB:g=original	!	!	!	!	!	!	!	!	!
=34	=34	=34	=34	=34	=34	=34	=34	=34	=34	=34	=34	=34	=34	=34
8D\L	3	.	(4.f#/	.	4.dd\	.	2.ryy	2.ryy	4.f#\	-dis	4.dd\	-dis	2.ryy	2.ryy
8D\	_	.	.	.	.	.	.	.	.	.	.	.	.	.
8D\	.	.	.	.	.	.	.	.	.	.	.	.	.	.
8D\	x	.	16e/LL	.	16cc#X\LL	.	.	.	16e\LL	cor-	16cc#X\LL	cor-	.	.
.	.	.	16f#/JJ)	.	16dd\JJ	.	.	.	16f#\JJ	.	16dd\JJ	.	.	.
.	.	.	8qa/	.	8qff#/	.	.	.	.	.	.	.	.	.
8D\	4 2	.	8g/L	.	8ee\L	.	.	.	8g\L	.	8ee\L	.	.	.
8D\J	_ _	.	16f#/L	.	16dd\L	.	.	.	16f#\L	.	16dd\L	.	.	.
.	.	.	16g/JJ	.	16ee\JJ	.	.	.	16g\JJ	.	16ee\JJ	.	.	.
!	!	!	!LO:LB:g=original	!	!	!	!	!	!	!	!LO:LB:g=original	!	!	!
=35	=35	=35	=35	=35	=35	=35	=35	=35	=35	=35	=35	=35	=35	=35
8D\L	3	.	4.a/	.	(4.ff#\	.	2.ryy	2.ryy	4.a\	.	4.ff#\	.	2.ryy	2.ryy
8D\	_	.	.	.	.	.	.	.	.	.	.	.	.	.
8F#\	x	.	.	.	.	.	.	.	.	.	.	.	.	.
8F#\	2	.	8f#/	.	8dd\)	.	.	.	8f#\	-dis	8dd\	-dis	.	.
.	.	.	8qa/	.	8qff#/	.	.	.	.	.	.	.	.	.
8A\	#	.	8g/L	.	8ee\L	.	.	.	8g\L	Su-	8ee\L	Su-	.	.
8A\J	_	.	16f#/L	.	16dd\L	.	.	.	16f#\L	.	16dd\L	.	.	.
.	.	.	16e/JJ	.	16cc#X\JJ	.	.	.	16e\JJ	.	16cc#X\JJ	.	.	.
!LO:LB:g=original	!	!	!	!	!	!	!	!	!	!	!	!	!	!
=36	=36	=36	=36	=36	=36	=36	=36	=36	=36	=36	=36	=36	=36	=36
!	!	!	!	!LO:DY:rj:a:t=f&colon;	!	!LO:DY:a:t=f&colon;	!	!	!	!LO:MO:mod=i	!	!LO:MO:mod=i	!	!
8D\L	x	fz	8f#/L	f	2dd\	f	2.ryy	2.ryy	4f#\	-is	4dd\	-is	2.ryy	2.ryy
8D\	.	.	8f#/	.	.	.	.	.	.	.	.	.	.	.
8D\	.	.	8f#/	.	.	.	.	.	4r	.	4r	.	.	.
8D\	.	.	8f#/	.	.	.	.	.	.	.	.	.	.	.
8D\	.	.	8f#/	.	16ee\LL	.	.	.	4r	.	4r	.	.	.
.	.	.	.	.	16dd\	.	.	.	.	.	.	.	.	.
8D\J	.	.	8f#/J	.	16cc#X\	.	.	.	.	.	.	.	.	.
.	.	.	.	.	16dd\JJ	.	.	.	.	.	.	.	.	.
!	!	!	!	!	!	!	!	!	!LO:LB:g=original	!	!	!	!	!
=37	=37	=37	=37	=37	=37	=37	=37	=37	=37	=37	=37	=37	=37	=37
8D\L	6 4	.	8g/L	.	4.bt\	.	2.ryy	2.ryy	0.r	.	0.r	.	2.ryy	2.ryy
8D\	_ _	.	8g/	.	.	.	.	.	.	.	.	.	.	.
8D\	.	.	8g/	.	.	.	.	.	.	.	.	.	.	.
8D\	5 3	.	8g/	.	16a\LL	.	.	.	.	.	.	.	.	.
.	.	.	.	.	16b\JJ	.	.	.	.	.	.	.	.	.
8D\	.	.	8f#/	.	16a\LL	.	.	.	.	.	.	.	.	.
.	.	.	.	.	16dd\	.	.	.	.	.	.	.	.	.
8D\J	.	.	8f#/J	.	16ff#\	.	.	.	.	.	.	.	.	.
.	.	.	.	.	16dd\JJ	.	.	.	.	.	.	.	.	.
=38	=38	=38	=38	=38	=38	=38	=38	=38	=38	=38	=38	=38	=38	=38
8A\L	4	.	8.f#/L	.	(8.dd\L	.	2.ryy	2.ryy	.	.	.	.	2.ryy	2.ryy
!LO:TX:t=P:problem=mixed beam	!	!	!	!	!	!	!	!	!	!	!	!	!	!
8A\	.	.	.	.	.	.	.	.	.	.	.	.	.	.
.	.	.	32e/LL	.	32cc#X\LL	.	.	.	.	.	.	.	.	.
.	.	.	32f#/JJJ	.	32dd\JJJ)	.	.	.	.	.	.	.	.	.
8AA/	#	.	8e/L	.	8cc#\L	.	.	.	.	.	.	.	.	.
8AA/	.	.	8e/	.	16ee\L	.	.	.	.	.	.	.	.	.
.	.	.	.	.	16cc#\JJ	.	.	.	.	.	.	.	.	.
8C#X/	6 5	.	8e/	.	16a/LL	.	.	.	.	.	.	.	.	.
.	.	.	.	.	16b/	.	.	.	.	.	.	.	.	.
8C#/J	.	.	8e/J	.	16a/	.	.	.	.	.	.	.	.	.
.	.	.	.	.	16g/JJ	.	.	.	.	.	.	.	.	.
!	!	!	!	!	!LO:LB:g=original	!	!	!	!	!	!	!	!	!
=39	=39	=39	=39	=39	=39	=39	=39	=39	=39	=39	=39	=39	=39	=39
4D\	4	.	8.e/L	.	8.g/L	.	2.ryy	2.ryy	.	.	.	.	2.ryy	2.ryy
.	.	.	32d/LL	.	32f#/LL	.	.	.	.	.	.	.	.	.
.	.	.	32e/JJJ	.	32g/JJJ	.	.	.	.	.	.	.	.	.
4DD/	3	.	4d/	.	8f#/L	.	.	.	.	.	.	.	.	.
.	.	.	.	.	16f#/L	.	.	.	.	.	.	.	.	.
.	.	.	.	.	16g/JJ	.	.	.	.	.	.	.	.	.
8r	.	.	8r	.	16a\LL	.	.	.	.	.	.	.	.	.
.	.	.	.	.	16b\	.	.	.	.	.	.	.	.	.
8D\	6	.	8d/	.	16cc#X\	.	.	.	.	.	.	.	.	.
.	.	.	.	.	16dd\JJ	.	.	.	.	.	.	.	.	.
!	!	!	!LO:LB:g=original	!	!	!	!	!	!	!	!	!	!	!
=40	=40	=40	=40	=40	=40	=40	=40	=40	=40	=40	=40	=40	=40	=40
8G\L	.	.	4.B/	.	4.b\	.	2.ryy	2.ryy	.	.	.	.	2.ryy	2.ryy
8G\	.	.	.	.	.	.	.	.	.	.	.	.	.	.
8G\	.	.	.	.	.	.	.	.	.	.	.	.	.	.
8G\	.	.	16A/LL	.	16a\LL	.	.	.	.	.	.	.	.	.
.	.	.	16B/JJ	.	16b\JJ	.	.	.	.	.	.	.	.	.
.	.	.	8qd/	.	.	.	.	.	.	.	.	.	.	.
8E\	6\ 3	.	8c#X/L	.	8cc#X\L	.	.	.	.	.	.	.	.	.
8E\J	_ _	.	16B/L	.	16b\L	.	.	.	.	.	.	.	.	.
.	.	.	16c#/JJ	.	16cc#\JJ	.	.	.	.	.	.	.	.	.
!LO:LB:g=original	!	!	!	!	!	!	!	!	!	!	!	!	!	!
=41	=41	=41	=41	=41	=41	=41	=41	=41	=41	=41	=41	=41	=41	=41
8F#\L	6	.	8d/L	.	8.dd\L	.	2.ryy	2.ryy	0.r	.	0.r	.	2.ryy	2.ryy
8F#\	.	.	16e/L	.	.	.	.	.	.	.	.	.	.	.
.	.	.	16f#/JJ	.	32ee\LL	.	.	.	.	.	.	.	.	.
.	.	.	.	.	32ff#\JJJ	.	.	.	.	.	.	.	.	.
8C#X\	6 5	.	8g/L	.	8gg\L	.	.	.	.	.	.	.	.	.
8C#\	_ _	.	8g/J	.	8gg\J	.	.	.	.	.	.	.	.	.
8D\	x	.	16g/LL	.	16gg\LL	.	.	.	.	.	.	.	.	.
.	.	.	16f#/	.	16ff#\	.	.	.	.	.	.	.	.	.
8D\J	.	.	16a/	.	16aa\	.	.	.	.	.	.	.	.	.
.	.	.	16f#/JJ	.	16ff#\JJ	.	.	.	.	.	.	.	.	.
=42	=42	=42	=42	=42	=42	=42	=42	=42	=42	=42	=42	=42	=42	=42
8G\L	6	.	8.e/L	.	16ee\LL	.	2.ryy	2.ryy	.	.	.	.	2.ryy	2.ryy
.	.	.	.	.	16ff#\	.	.	.	.	.	.	.	.	.
8G\	.	.	.	.	16gg\	.	.	.	.	.	.	.	.	.
.	.	.	16g/Jk	.	16ee\JJ	.	.	.	.	.	.	.	.	.
8A\	4	.	4f#/	.	4dd\	.	.	.	.	.	.	.	.	.
!LO:TX:t=P:problem=mixed beam	!	!	!	!	!	!	!	!	!	!	!	!	!	!
8A\	.	.	.	.	.	.	.	.	.	.	.	.	.	.
8AA/	#	.	4e/	.	4cc#X\	.	.	.	.	.	.	.	.	.
8AA/J	.	.	.	.	.	.	.	.	.	.	.	.	.	.
=43	=43	=43	=43	=43	=43	=43	=43	=43	=43	=43	=43	=43	=43	=43
8D\L	.	.	4.f#/	.	4.dd\	.	2.ryy	2.ryy	.	.	.	.	2.ryy	2.ryy
8D\	.	.	.	.	.	.	.	.	.	.	.	.	.	.
8D\	.	.	.	.	.	.	.	.	.	.	.	.	.	.
8D\	.	.	16e/LL	.	16ee\LL	.	.	.	.	.	.	.	.	.
.	.	.	16f#/JJ	.	16dd\JJ	.	.	.	.	.	.	.	.	.
.	.	.	8qb/	.	8qdd/	.	.	.	.	.	.	.	.	.
8D\	7n 5	.	8a/L	.	8ccn\L	.	.	.	.	.	.	.	.	.
8D\J	.	.	16g/L	.	16b\L	.	.	.	.	.	.	.	.	.
.	.	.	16a/JJ	.	16cc\JJ	.	.	.	.	.	.	.	.	.
!	!	!	!	!	!LO:LB:g=original	!	!	!	!	!	!	!	!	!
=44	=44	=44	=44	=44	=44	=44	=44	=44	=44	=44	=44	=44	=44	=44
8D\L	6 4	.	8g/	.	8b\	.	2.ryy	2.ryy	.	.	.	.	2.ryy	2.ryy
!	!	!	!	!LO:DY:t=sf&colon;	!	!	!	!	!	!	!	!	!	!
8D\	_ _	.	4b/	sf	4gg\	sfz	.	.	.	.	.	.	.	.
8D\	.	.	.	.	.	.	.	.	.	.	.	.	.	.
8D\	x	.	8g/	.	8ee\	.	.	.	.	.	.	.	.	.
!	!	!	!LO:LB:g=original	!	!	!	!	!	!	!	!	!	!	!
.	.	.	8qf#/	.	8qdd/	.	.	.	.	.	.	.	.	.
8D\	7# 2	.	8e/L	.	(8cc#X\L	.	.	.	.	.	.	.	.	.
8D\J	_ _	.	16d/L	.	16b\L	.	.	.	.	.	.	.	.	.
.	.	.	16e/JJ	.	16cc#\JJ)	.	.	.	.	.	.	.	.	.
=45	=45	=45	=45	=45	=45	=45	=45	=45	=45	=45	=45	=45	=45	=45
!	!	!	!	!LO:DY:t=p&colon;	!	!	!	!	!	!	!	!	!	!
8D\L	8 3	.	4.f#/	p	4.dd\	.	2.ryy	2.ryy	1.r	.	1.r	.	2.ryy	2.ryy
8D\	_ _	.	.	.	.	.	.	.	.	.	.	.	.	.
8D\	.	.	.	.	.	.	.	.	.	.	.	.	.	.
8D\	x	.	16e/LL	.	16ee\LL	.	.	.	.	.	.	.	.	.
.	.	.	16f#/JJ	.	16dd\JJ	.	.	.	.	.	.	.	.	.
.	.	.	8qb/	.	8qdd/	.	.	.	.	.	.	.	.	.
8D\	7n 5	.	8a/L	.	8ccn\L	.	.	.	.	.	.	.	.	.
8D\J	_ _	.	16g/L	.	16b\L	.	.	.	.	.	.	.	.	.
.	.	.	16a/JJ	.	16cc\JJ	.	.	.	.	.	.	.	.	.
!LO:LB:g=original	!	!	!	!	!	!	!	!	!	!	!	!	!	!
=46	=46	=46	=46	=46	=46	=46	=46	=46	=46	=46	=46	=46	=46	=46
8D\L	6 4	.	8g/	.	8b\	.	2.ryy	2.ryy	.	.	.	.	2.ryy	2.ryy
8D\	_ _	.	4b/	sfz	4gg\	sfz	.	.	.	.	.	.	.	.
8D\	.	.	.	.	.	.	.	.	.	.	.	.	.	.
8D\	x	.	8g/	.	8ee\	.	.	.	.	.	.	.	.	.
.	.	.	8qf#/	.	8qdd/	.	.	.	.	.	.	.	.	.
8D\	7# 2	.	8e/L	.	8cc#X\L	.	.	.	.	.	.	.	.	.
8D\J	_ _	.	16d/L	.	16b\L	.	.	.	.	.	.	.	.	.
.	.	.	16e/JJ	.	16cc#\JJ	.	.	.	.	.	.	.	.	.
=47	=47	=47	=47	=47	=47	=47	=47	=47	=47	=47	=47	=47	=47	=47
!	!	!	!	!	!LO:SIC:s:v=4cc#	!	!	!	!	!	!	!	!	!
4D\	.	.	(4e/	.	(4cc\	.	2.ryy	2.ryy	2.r	.	2.r	.	2.ryy	2.ryy
4DD/	x 3	.	4f#/)	.	4dd\)	.	.	.	.	.	.	.	.	.
!	!	!	!LO:TX:b:t=Verte	!	!	!	!	!	!	!	!	!	!	!
4r	.	.	4r	.	4r	.	.	.	.	.	.	.	.	.
!	!	!	!LO:PB:g=original	!	!	!	!	!	!	!	!	!	!	!
=48	=48	=48	=48	=48	=48	=48	=48	=48	=48	=48	=48	=48	=48	=48
!	!	!LO:DY:rj:t=p&colon;	!	!LO:DY:a:t=p&colon;	!	!LO:DY:a:t=p&colon;	!	!	!	!	!	!	!	!
8D\L	.	p	2f#/	p	2a/	p	2.ryy	2.ryy	2f#\	De-	2a\	De-	2.ryy	2.ryy
8D\	.	.	.	.	.	.	.	.	.	.	.	.	.	.
8D\	.	.	.	.	.	.	.	.	.	.	.	.	.	.
8D\	.	.	.	.	.	.	.	.	.	.	.	.	.	.
!	!	!	!	!	!	!	!	!	!	!	!	!LO:MO:mod=po-	!	!
8D\	6 4	.	8b/L	.	8dd\L	.	.	.	8b\L	.	8dd\L	-poſ-	.	.
8D\J	.	.	8g/J	.	8b\J	.	.	.	8g\J	.	8b\J	.	.	.
=49	=49	=49	=49	=49	=49	=49	=49	=49	=49	=49	=49	=49	=49	=49
*tremolo	*	*	*	*	*	*	*	*	*	*	*	*	*	*
8D\L	5 3	.	2f#/	.	2a/	.	2.ryy	2.ryy	2f#\	.	2a\	.	2.ryy	2.ryy
8D\	.	.	.	.	.	.	.	.	.	.	.	.	.	.
8D\	.	.	.	.	.	.	.	.	.	.	.	.	.	.
8D\	.	.	.	.	.	.	.	.	.	.	.	.	.	.
8D\	.	.	16d/LL	.	16f#/LL	.	.	.	16d\LL	.	16f#/LL	.	.	.
.	.	.	(16c#X/	.	16e/	.	.	.	16c#X\	.	16e/JJ	.	.	.
8D\J	.	.	16d/	.	16f#/	.	.	.	16d\	.	16f#/LL	.	.	.
.	.	.	16e/JJ)	.	16g/JJ	.	.	.	16e\JJ	.	16g/JJ	.	.	.
*Xtremolo	*	*	*	*	*	*	*	*	*	*	*	*	*	*
!	!	!	!	!	!LO:LB:g=original	!	!	!	!	!	!	!	!	!
=50	=50	=50	=50	=50	=50	=50	=50	=50	=50	=50	=50	=50	=50	=50
!	!	!	!	!	!	!	!	!	!	!LO:MO:mod=po-	!	!	!	!
8D\L	_ _	.	(4.f#/	.	4.a/	.	2.ryy	2.ryy	4.f#\	-poſ-	4.a\	.	2.ryy	2.ryy
8D\	.	.	.	.	.	.	.	.	.	.	.	.	.	.
8D\	x	.	.	.	.	.	.	.	.	.	.	.	.	.
!	!	!	!	!	!LO:TX:t=P:problem=mixed beam	!	!	!	!	!	!	!	!	!
8D\	.	.	8d/L)	.	8f#/L	.	.	.	8d\	-su-	8f#/	-su-	.	.
!	!	!	!	!	!	!	!	!	!	!	!LO:LB:g=original	!	!	!
.	.	.	.	.	.	.	.	.	.	.	8qee/	.	.	.
8D\	6 4	.	(8b/	.	8dd\	.	.	.	8b\	-it	8dd\	-it	.	.
8D\J	.	.	8g/J)	.	8b\J	.	.	.	16a\LL	po-	16cc#X\LL	po-	.	.
.	.	.	.	.	.	.	.	.	16g\JJ	.	16b\JJ	.	.	.
=51	=51	=51	=51	=51	=51	=51	=51	=51	=51	=51	=51	=51	=51	=51
8D\L	_ _	.	4g/	.	4b\	.	2.ryy	2.ryy	8.g\L	-ten-	8.b\L	-ten-	2.ryy	2.ryy
!LO:TX:t=P:problem=mixed beam	!	!	!	!	!	!	!	!	!	!	!	!	!	!
8D\	.	.	.	.	.	.	.	.	.	.	.	.	.	.
.	.	.	.	.	.	.	.	.	32f#\LL	.	32a\LL	.	.	.
.	.	.	.	.	.	.	.	.	32g\JJJ	.	32b\JJJ	.	.	.
8DD/	5 3	.	8f#/L	.	8a\L	.	.	.	4f#\	-tes	4a\	-tes	.	.
8DD/	.	.	16f#/L	.	16dd\L	.	.	.	.	.	.	.	.	.
.	.	.	16g/JJ	.	16ee\JJ	.	.	.	.	.	.	.	.	.
!	!	!	!	!	!	!	!	!	!LO:LB:g=original	!	!	!	!	!
8D\	.	.	8a/L	.	8ff#\L	.	.	.	8r	.	8r	.	.	.
8D\J	.	.	8a/J	.	8ff#\J	.	.	.	8f#\	po-	8dd\	po-	.	.
!LO:LB:g=original	!	!	!	!	!	!	!	!	!	!	!	!	!	!
=52	=52	=52	=52	=52	=52	=52	=52	=52	=52	=52	=52	=52	=52	=52
8G\L	6	.	8g/	.	8ee\	.	2.ryy	2.ryy	(8g\	.	8ee\	.	2.ryy	2.ryy
8G\	_	.	4b/	.	4gg\	.	.	.	4b\)	.	4gg\	.	.	.
8G\	.	.	.	.	.	.	.	.	.	.	.	.	.	.
8G\	x	.	8g/	.	8ee\	.	.	.	8g\	-ten-	8ee\	-ten-	.	.
!LO:TX:t=P:problem=mixed beam	!	!	!	!	!	!	!	!	!	!	!	!	!	!
8A\	4	.	16g/LL	.	16ee\LL	.	.	.	16g\LL	-tes	16ee\LL	-tes	.	.
.	.	.	16f#/	.	16dd\	.	.	.	16f#\JJ	.	16dd\JJ	.	.	.
8AA/J	#	.	16f#/	.	16dd\	.	.	.	16f#\LL	de	16dd\LL	de	.	.
.	.	.	16e/JJ	.	16cc#X\JJ	.	.	.	16e\JJ	.	16cc#X\JJ	.	.	.
=53	=53	=53	=53	=53	=53	=53	=53	=53	=53	=53	=53	=53	=53	=53
*tremolo	*	*	*	*	*	*	*	*	*	*	*	*	*	*
8D\L	.	.	8.f#/L	.	(8.dd\L	.	2.ryy	2.ryy	8.f#\L	Se-	8.dd\L	se-	2.ryy	2.ryy
8D\	.	.	.	.	.	.	.	.	.	.	.	.	.	.
.	.	.	16g/Jk	.	16ee\Jk)	.	.	.	16g\Jk	.	16ee\Jk	.	.	.
!	!	!	!LO:LB:g=original	!	!	!	!	!	!	!	!	!	!	!
8D\	.	.	8a/L	.	8ff#\L	.	.	.	4a\	-de	4ff#\	-de	.	.
8D\	.	.	8a/J	.	8ff#\J	.	.	.	.	.	.	.	.	.
8D\	.	.	16a/LL	.	16ff#\LL	.	.	.	8r	.	8r	.	.	.
.	.	.	16f#/	.	16dd\	.	.	.	.	.	.	.	.	.
!LO:TX:b:t=x	!	!	!	!	!	!	!	!	!	!LO:MO:mod=et	!	!LO:MO:mod=et	!	!
8D\J	.	.	16g/	.	16ee\	.	.	.	8a\	&	8ff#\	&	.	.
.	.	.	16a/JJ	.	16ff#\JJ	.	.	.	.	.	.	.	.	.
*Xtremolo	*	*	*	*	*	*	*	*	*	*	*	*	*	*
!	!	!	!	!	!	!	!	!	!	!	!LO:LB:g=original	!	!	!
=54	=54	=54	=54	=54	=54	=54	=54	=54	=54	=54	=54	=54	=54	=54
8G\L	6	.	8g/	.	8ee\	.	2.ryy	2.ryy	(8g\	ex-	8ee\	ex-	2.ryy	2.ryy
8G\	_	.	4b/	.	4gg\	.	.	.	4b\)	.	4gg\	.	.	.
8G\	.	.	.	.	.	.	.	.	.	.	.	.	.	.
8G\	x	.	8g/	.	8ee\	.	.	.	8g\	-al-	8ee\	-al-	.	.
!LO:TX:t=P:problem=mixed beam	!	!	!	!	!	!	!	!	!	!	!	!	!	!
8A\	4	.	16g/LL	.	16ee\LL	.	.	.	16g\LL	-ta-	16ee\LL	-ta-	.	.
.	.	.	16f#/	.	16dd\	.	.	.	16f#\JJ	.	16dd\JJ	.	.	.
8AA/J	#	.	16f#/	.	16dd\	.	.	.	16f#\LL	-vit	16dd\LL	-vit	.	.
.	.	.	16e/JJ	.	16cc#X\JJ	.	.	.	16e\JJ	.	16cc#X\JJ	.	.	.
!	!	!	!	!	!LO:LB:g=original	!	!	!	!LO:LB:g=original	!	!	!	!	!
=55	=55	=55	=55	=55	=55	=55	=55	=55	=55	=55	=55	=55	=55	=55
8D\L	.	.	8f#/L	.	8.dd\L	.	2.ryy	2.ryy	8f#\	hu-	8.dd\	hu-	2.ryy	2.ryy
8d\	.	.	8a/J	.	.	.	.	.	8a\	-mi-	.	.	.	.
.	.	.	.	.	16ff#\Jk	.	.	.	.	.	16ff#\	-mi-	.	.
8A\	.	.	4f#/	.	4dd\	.	.	.	4f#\	-les	4dd\	-les	.	.
8F#\J	.	.	.	.	.	.	.	.	.	.	.	.	.	.
4D\	.	.	8r	.	8r	.	.	.	8r	.	8r	.	.	.
.	.	.	8f#/	.	8dd\	.	.	.	8f#\	Es-	8dd\	Es-	.	.
=56	=56	=56	=56	=56	=56	=56	=56	=56	=56	=56	=56	=56	=56	=56
8r	.	.	4.b\	.	4.dd\	.	2.ryy	2.ryy	(4.b\	-u-	4.dd\	-u-	2.ryy	2.ryy
8D\L	6	.	.	.	.	.	.	.	.	.	.	.	.	.
8D\	_	.	.	.	.	.	.	.	.	.	.	.	.	.
8D\	.	.	16a\LL	.	16ccn\LL	.	.	.	16a\LL)	.	16cc\LL	.	.	.
.	.	.	16b\JJ	.	16dd\JJ	.	.	.	16b\JJ	.	16dd\JJ	.	.	.
8E\	#	.	16ccn/LL	.	16ee\LL	.	.	.	16ccn\LL	.	16ee\LL	.	.	.
.	.	.	16b/	.	16dd\	.	.	.	16b\JJ	.	16dd\JJ	.	.	.
8E\J	_	.	16a/	.	16cc\	.	.	.	16a\LL	-ri-	16ccn\LL	-ri-	.	.
.	.	.	16g#X/JJ	.	16b\JJ	.	.	.	16g#X\JJ	.	16b\JJ	.	.	.
=57	=57	=57	=57	=57	=57	=57	=57	=57	=57	=57	=57	=57	=57	=57
!LO:TX:t=P:problem=mixed beam	!	!	!	!	!	!	!	!	!	!	!	!	!	!
8AA/L	n	.	8.a/L	.	8.cc\L	.	2.ryy	2.ryy	8.a\L	-en-	8.cc\L	-en-	2.ryy	2.ryy
16A\L	_	.	.	.	.	.	.	.	.	.	.	.	.	.
!	!	!	!LO:SIC:s:v=16g#	!	!	!	!	!	!	!	!	!	!	!
16G#X\JJ	.	.	16g/Jk	.	16b\Jk	.	.	.	16b\Jk	.	16cc\Jk	.	.	.
8A\L	x	.	4a/	.	4cc\	.	.	.	4a\	-tes	4cc\	-tes	.	.
16E\L	.	.	.	.	.	.	.	.	.	.	.	.	.	.
16Cn\JJ	.	.	.	.	.	.	.	.	.	.	.	.	.	.
!	!	!	!LO:LB:g=original	!	!	!	!	!	!	!	!LO:LB:g=original	!	!	!
4AA/	.	.	8r	.	8r	.	.	.	8r	.	8r	.	.	.
.	.	.	8a/	.	8cc\	.	.	.	8a\	im-	8cc\	im-	.	.
!LO:LB:g=original	!	!	!	!	!	!	!	!	!	!	!	!	!	!
=58	=58	=58	=58	=58	=58	=58	=58	=58	=58	=58	=58	=58	=58	=58
8r	6	.	4.a/	.	4.cc\	.	2.ryy	2.ryy	(4.a\	-ple-	4.cc\	-ple-	2.ryy	2.ryy
8C/L	_	.	.	.	.	.	.	.	.	.	.	.	.	.
8C/	.	.	.	.	.	.	.	.	.	.	.	.	.	.
8C/	.	.	16g/LL	.	16b\LL	.	.	.	16g\LL)	.	16b\LL	.	.	.
.	.	.	16a/JJ	.	16cc\JJ	.	.	.	16a\JJ	.	16cc\JJ	.	.	.
!	!	!	!	!	!	!	!	!	!LO:LB:g=original	!	!	!	!	!
8C/	3	.	16b/LL	.	16dd\LL	.	.	.	16b\LL	.	16dd\LL	.	.	.
.	.	.	16a/	.	16cc\	.	.	.	16a\JJ	.	16cc\JJ	.	.	.
8C/J	_	.	16gn/	.	16b\	.	.	.	16gn\LL	-vit	16b\LL	-vit	.	.
.	.	.	16f#/JJ	.	16a\JJ	.	.	.	16f#\JJ	.	16a\JJ	.	.	.
=59	=59	=59	=59	=59	=59	=59	=59	=59	=59	=59	=59	=59	=59	=59
!LO:TX:t=P:problem=mixed beam	!	!	!	!	!	!	!	!	!	!	!	!	!	!
8GG/L	x	.	8.g/L	.	8.b\L	.	2.ryy	2.ryy	8.g\L	bo-	8.b\L	bo-	2.ryy	2.ryy
16G\L	.	.	.	.	.	.	.	.	.	.	.	.	.	.
16F#\JJ	.	.	16f#/Jk	.	16a\Jk	.	.	.	16a\Jk	.	16cc\Jk	.	.	.
8G\L	.	.	4g/	.	4b\	.	.	.	4g\	-nis	4b\	-nis	.	.
16D\L	.	.	.	.	.	.	.	.	.	.	.	.	.	.
16BB\JJ	.	.	.	.	.	.	.	.	.	.	.	.	.	.
!LO:TX:t=P:problem=mixed beam	!	!	!	!	!	!	!	!	!	!	!	!	!	!
8GG/L	.	.	8r	.	8r	.	.	.	8r	.	8r	.	.	.
!	!	!	!	!	!	!	!	!	!	!LO:MO:mod=et	!	!LO:MO:mod=et	!	!
8G\J	.	.	8b\	.	8dd\	.	.	.	8b\	&	8dd\	&	.	.
=60	=60	=60	=60	=60	=60	=60	=60	=60	=60	=60	=60	=60	=60	=60
8G\L	6 4	.	4.cc\	.	4.ee\	.	2.ryy	2.ryy	4.cc\	diſ-	4.ee\	diſ-	2.ryy	2.ryy
8G\	_ _	.	.	.	.	.	.	.	.	.	.	.	.	.
8G\	.	.	.	.	.	.	.	.	.	.	.	.	.	.
8G\	x	.	16b\LL	.	16dd\LL	.	.	.	16b\LL	-vi-	16dd\LL	-vi-	.	.
.	.	.	16cc\JJ	.	16ee\JJ	.	.	.	16cc\JJ	.	16ee\JJ	.	.	.
!	!	!	!	!	!LO:LB:g=original	!	!	!	!	!	!	!	!	!
.	.	.	8qb/	.	8qgg/	.	.	.	8qb/	.	.	.	.	.
8G\	7 2	.	8a/L	.	8ff#\L	.	.	.	8a\	-tes	8ff#\	-tes	.	.
8G\J	_ _	.	16g/L	.	16ee\L	.	.	.	16g\LL	diſ-	16ee\LL	diſ-	.	.
.	.	.	16a/JJ	.	16ff#\JJ	.	.	.	16a\JJ	.	16ff#\JJ	.	.	.
=61	=61	=61	=61	=61	=61	=61	=61	=61	=61	=61	=61	=61	=61	=61
!	!	!	!	!	!	!	!	!	!	!LO:MO:mod=mi-	!	!LO:MO:mod=mi-	!	!
8G\L	8 3	.	4.b\	.	4.gg\	.	2.ryy	2.ryy	(4.b\	-mis-	4.gg\	-mis-	2.ryy	2.ryy
8G\	_ _	.	.	.	.	.	.	.	.	.	.	.	.	.
8G\	.	.	.	.	.	.	.	.	.	.	.	.	.	.
8G\	x	.	16a\LL	.	16aa\LL	.	.	.	16a\LL)	.	16aa\LL	.	.	.
.	.	.	16b\JJ	.	16gg\JJ	.	.	.	16b\JJ	.	16gg\JJ	.	.	.
.	.	.	8qee/	.	8qgg/	.	.	.	.	.	.	.	.	.
!	!	!	!	!	!	!	!	!	!	!	!LO:LB:g=original	!	!	!
8G\	7n 5	.	8dd\L	.	8ffn\L	.	.	.	8dd\	-sit	8ffn\	-sit	.	.
!	!	!	!	!	!	!	!	!	!	!	!	!LO:MO:mod=et	!	!
8G\J	_ _	.	16cc\L	.	16ee\L	.	.	.	16cc\LL	diſ-	16ee\LL	&	.	.
.	.	.	16dd\JJ	.	16ff\JJ	.	.	.	16dd\JJ	.	16ff\JJ	.	.	.
!	!	!	!LO:LB:g=original	!	!	!	!	!	!LO:LB:g=original	!	!	!	!	!
=62	=62	=62	=62	=62	=62	=62	=62	=62	=62	=62	=62	=62	=62	=62
!	!	!	!	!	!	!	!	!	!	!LO:MO:mod=mi-	!	!	!	!
8G\L	6 4	.	4.cc\	.	4.ee\	.	2.ryy	2.ryy	(4.cc\	-mis-	4.ee\	diſ-	2.ryy	2.ryy
8G\	_ _	.	.	.	.	.	.	.	.	.	.	.	.	.
8G\	.	.	.	.	.	.	.	.	.	.	.	.	.	.
8G\	x	.	16b\LL	.	16dd\LL	.	.	.	16b\LL)	.	16dd\LL	-vi-	.	.
.	.	.	16cc\JJ	.	16ee\JJ	.	.	.	16cc\JJ	.	16ee\JJ	.	.	.
.	.	.	8qb/	.	8qgg/	.	.	.	8qb/	.	.	.	.	.
8G\	7# 2	.	8a/L	.	8ff#X\L	.	.	.	8a\	-sit	8ff#X\	-tes	.	.
8G\J	_ _	.	16g/L	.	16ee\L	.	.	.	16g\LL	in-	16ee\LL	diſ-	.	.
.	.	.	16a/JJ	.	16ff#\JJ	.	.	.	16a\JJ	.	16ff#\JJ	.	.	.
!LO:LB:g=original	!	!	!	!	!	!	!	!	!	!	!	!	!	!
=63	=63	=63	=63	=63	=63	=63	=63	=63	=63	=63	=63	=63	=63	=63
!	!	!	!	!	!	!	!	!	!	!	!	!LO:MO:mod=mi-	!	!
8G\L	3	.	4b\	.	8gg\L	.	2.ryy	2.ryy	4b\	-a-	8gg\L	-mis-	2.ryy	2.ryy
8G\	.	.	.	.	8dd\J	.	.	.	.	.	8dd\J	.	.	.
8G\	_	.	4b\	.	8dd\L	.	.	.	4b\	-nes	4dd\	-sit	.	.
8G\	.	.	.	.	16ee\L	.	.	.	.	.	.	.	.	.
.	x	.	.	.	16ff#\JJ	.	.	.	.	.	.	.	.	.
8G\	.	.	8r	.	16gg\LL	.	.	.	8r	.	8r	.	.	.
.	.	.	.	.	16ff#\	.	.	.	.	.	.	.	.	.
8G\J	.	.	8b\	.	16ee\	.	.	.	8b\	diſ-	8dd\	diſ-	.	.
.	.	.	.	.	16dd\JJ	.	.	.	.	.	.	.	.	.
=64	=64	=64	=64	=64	=64	=64	=64	=64	=64	=64	=64	=64	=64	=64
!	!	!	!	!	!	!	!	!	!	!LO:MO:mod=mi-	!	!LO:MO:mod=mi-	!	!
8E\L	6\ 3	.	8g`/L	.	4.cc#X\	.	2.ryy	2.ryy	4g\	-mis-	(4.cc#X\	-mis-	2.ryy	2.ryy
8E\	.	.	(8g`/	.	.	.	.	.	.	.	.	.	.	.
8E\	_ _	.	8g`/	.	.	.	.	.	4.g\	-sit	.	.	.	.
8E\	.	.	8g`/	.	8ee\	.	.	.	.	.	8ee\)	.	.	.
8E\	x	.	8g`/)	.	16gg\LL	.	.	.	.	.	16gg\LL	-sit	.	.
.	.	.	.	.	16ee\	.	.	.	.	.	16ee\JJ	.	.	.
8E\J	.	.	8g`/J	.	16dd\	.	.	.	8g\	in-	16dd\LL	in-	.	.
.	.	.	.	.	16cc#\JJ	.	.	.	.	.	16cc#\JJ	.	.	.
!	!	!	!	!	!LO:LB:g=original	!	!	!	!	!	!	!	!	!
=65	=65	=65	=65	=65	=65	=65	=65	=65	=65	=65	=65	=65	=65	=65
!	!	!	!	!	!	!	!	!	!	!	!LO:SIC:s:v=8cc#	!	!	!
8D\L	3	.	(8g/L	.	8cc#X\L	.	2.ryy	2.ryy	4f#\	-a-	8cc\L	-a-	2.ryy	2.ryy
8D\	_	.	8f#/J)	.	8dd\J	.	.	.	.	.	8dd\J	.	.	.
8D\	.	.	8r	.	8r	.	.	.	4f#\	-nes	4dd\	-nes	.	.
8D\	.	.	16f#/LL	.	16dd\LL	.	.	.	.	.	.	.	.	.
.	x	.	16a/JJ	.	16ff#\JJ	.	.	.	.	.	.	.	.	.
!	!	!	!	!	!	!	!	!	!	!	!LO:LB:g=original	!	!	!
8D\	.	.	16g/LL	.	16ee\LL	.	.	.	8r	.	8r	.	.	.
.	.	.	16f#/	.	16dd\	.	.	.	.	.	.	.	.	.
8D\J	.	.	16e/	.	16cc#\	.	.	.	8f#\	diſ-	8dd\	diſ-	.	.
.	.	.	16f#/JJ	.	16dd\JJ	.	.	.	.	.	.	.	.	.
!	!	!	!	!	!	!	!	!	!LO:LB:g=original	!	!	!	!	!
=66	=66	=66	=66	=66	=66	=66	=66	=66	=66	=66	=66	=66	=66	=66
*	*	*	*tremolo	*	*	*	*	*	*	*	*	*	*	*
!	!	!	!	!	!	!	!	!	!	!LO:MO:mod=mi-	!	!LO:MO:mod=mi-	!	!
8E\L	6\ 3	.	8g/L	.	16dd\LL	.	2.ryy	2.ryy	4g\	-mis-	(4.cc#X\	-mis-	2.ryy	2.ryy
.	.	.	.	.	16cc#X\JJ	.	.	.	.	.	.	.	.	.
8E\	.	.	8g/	.	4cc#\	.	.	.	.	.	.	.	.	.
8E\	_ _	.	8g/	.	.	.	.	.	4.g\	-sit	.	.	.	.
8E\	.	.	8g/	.	8ee\	.	.	.	.	.	8ee\)	.	.	.
8E\	x	.	8g/	.	16gg\LL	.	.	.	.	.	16gg\LL	-sit	.	.
.	.	.	.	.	16ee\	.	.	.	.	.	16ee\JJ	.	.	.
8E\J	.	.	8g/J	.	16dd\	.	.	.	8g\	in-	16dd\LL	in-	.	.
.	.	.	.	.	16cc#\JJ	.	.	.	.	.	16cc#\JJ	.	.	.
*	*	*	*Xtremolo	*	*	*	*	*	*	*	*	*	*	*
!	!	!	!LO:LB:g=original	!	!	!	!	!	!	!	!	!	!	!
=67	=67	=67	=67	=67	=67	=67	=67	=67	=67	=67	=67	=67	=67	=67
!	!	!	!	!	!LO:SIC:s:v=8cc#	!	!	!	!	!	!LO:SIC:s:v=8cc#	!	!	!
4D\	3	.	4f#/	.	8cc\L	.	2.ryy	2.ryy	4f#\	-a-	8cc\L	-a-	2.ryy	2.ryy
.	.	.	.	.	8dd\J	.	.	.	.	.	8dd\J	.	.	.
4DD;/	.	.	4f#/	.	4dd;\	.	.	.	4f#\	-nes	4dd\	-nes	.	.
4r	.	.	4r;	.	4r	.	.	.	4r;	.	4r;	.	.	.
!LO:LB:g=original	!	!	!	!	!	!	!	!	!	!	!	!	!	!
=68	=68	=68	=68	=68	=68	=68	=68	=68	=68	=68	=68	=68	=68	=68
8G\L	.	.	2b/	.	2dd\	.	2.ryy	2.ryy	2b\	Sus-	2dd\	Sus-	2.ryy	2.ryy
8G\	.	.	.	.	.	.	.	.	.	.	.	.	.	.
8G\	.	.	.	.	.	.	.	.	.	.	.	.	.	.
8G\	.	.	.	.	.	.	.	.	.	.	.	.	.	.
8G\	.	.	16g/LL	.	(16b\LL	.	.	.	16g\LL	-ce-	16b\LL	-ce-	.	.
.	.	.	16f#/	.	16a\	.	.	.	16f#\JJ	.	16a\JJ	.	.	.
8G\J	.	.	16g/	.	16b\	.	.	.	16g\LL	-pit	16b\LL	-pit	.	.
.	.	.	16a/JJ	.	16cc\JJ)	.	.	.	16a\JJ	.	16cc\JJ	.	.	.
=69	=69	=69	=69	=69	=69	=69	=69	=69	=69	=69	=69	=69	=69	=69
8G\L	.	.	2b\	.	2dd\	.	2.ryy	2.ryy	2b\	Is-	2dd\	Is-	2.ryy	2.ryy
8G\	.	.	.	.	.	.	.	.	.	.	.	.	.	.
8G\	.	.	.	.	.	.	.	.	.	.	.	.	.	.
8G\	.	.	.	.	.	.	.	.	.	.	.	.	.	.
8G\	6 4	.	8cc\L	.	8ee\L	.	.	.	8cc\L	-ra-	8ee\	-ra-	.	.
8G\J	7 2	.	8a\J	.	8ff#\J	.	.	.	8a\J	-el	8ff#\	-el	.	.
!	!	!	!	!	!	!	!	!	!	!	!LO:LB:g=original	!	!	!
=70	=70	=70	=70	=70	=70	=70	=70	=70	=70	=70	=70	=70	=70	=70
8G\L	8 3	.	4.b\	.	4.gg\	.	2.ryy	2.ryy	(4.b\	pu-	(4.gg\	pu-	2.ryy	2.ryy
8G\	.	.	.	.	.	.	.	.	.	.	.	.	.	.
8G\	_ _	.	.	.	.	.	.	.	.	.	.	.	.	.
8G\	.	.	16a\LL	.	16ff#\LL	.	.	.	16a\LL)	.	16ff#\LL)	.	.	.
.	x	.	16b\JJ	.	16gg\JJ	.	.	.	16b\JJ	.	16gg\JJ	.	.	.
!	!	!	!	!	!LO:LB:g=original	!	!	!	!LO:LB:g=original	!	!	!	!	!
8G\	6 7	.	8cc\L	.	16aa\LL	.	.	.	8cc\	-e-	16aa\LL	-e-	.	.
.	.	.	.	.	16gg\	.	.	.	.	.	16gg\JJ	.	.	.
8G\J	x _	.	16dd\L	.	16ff#\	.	.	.	16dd\LL	-rum	16ff#\LL	-rum	.	.
.	_ _	.	16cc\JJ	.	16ee\JJ	.	.	.	16cc\JJ	.	16ee\JJ	.	.	.
=71	=71	=71	=71	=71	=71	=71	=71	=71	=71	=71	=71	=71	=71	=71
4G\	.	.	(8.ccT\L	.	8.ee\L	.	2.ryy	2.ryy	8.cc\L	Su-	8.ee\L	Su-	2.ryy	2.ryy
.	x	.	32b\LL	.	32dd\LL	.	.	.	32b\LL	.	32dd\LL	.	.	.
.	.	.	32cc\JJJ)	.	32ee\JJJ	.	.	.	32cc\JJJ	.	32ee\JJJ	.	.	.
4GG/	5 3	.	8b\L	.	8dd\L	.	.	.	4b\	-um	4dd\	-um	.	.
.	.	.	16gg\L	.	16bb\L	.	.	.	.	.	.	.	.	.
.	.	.	16ff#\JJ	.	16aa\JJ	.	.	.	.	.	.	.	.	.
8r	.	.	16ee\LL	.	16gg\LL	.	.	.	8b\	re-	16gg\LL	Re-	.	.
.	.	.	16dd\	.	16ff#\	.	.	.	.	.	16ff#\JJ	.	.	.
8G\	.	.	16cc\	.	16ee\	.	.	.	8b\	-cor-	16ee\LL	-cor-	.	.
.	.	.	16b\JJ	.	16dd\JJ	.	.	.	.	.	16dd\JJ	.	.	.
!	!	!	!LO:LB:g=original	!	!	!	!	!	!	!	!	!	!	!
=72	=72	=72	=72	=72	=72	=72	=72	=72	=72	=72	=72	=72	=72	=72
4D\	.	.	16b/LL	.	16dd\LL	.	2.ryy	2.ryy	16b\LL	-da-	16dd\LL	-da-	2.ryy	2.ryy
.	.	.	16a/	.	16cc\	.	.	.	16a\	.	16cc\	.	.	.
.	.	.	16a/	.	16cc\	.	.	.	16a\	.	16cc\	.	.	.
.	.	.	16g/JJ	.	16b\JJ	.	.	.	16g\JJ	.	16b\JJ	.	.	.
!	!	!	!LO:TX:t=P:problem=mixed beam	!	!	!	!	!	!	!	!	!	!	!
4D\	.	.	8a/L	.	8cc\L	.	.	.	4a\	-tus	4cc\	-tus	.	.
.	.	.	16ff#\L	.	16aa\L	.	.	.	.	.	.	.	.	.
.	.	.	16ee\JJ	.	16gg\JJ	.	.	.	.	.	.	.	.	.
8r	.	.	16dd\LL	.	16ff#\LL	.	.	.	8a\	{re-	16ff#\LL	Re-	.	.
.	.	.	16cc\	.	16ee\	.	.	.	.	.	16ee\JJ	.	.	.
8F#\	6 5	.	16b\	.	16dd\	.	.	.	8a\	-cor-	16dd\LL	-cor-	.	.
.	.	.	16a\JJ	.	16cc\JJ	.	.	.	.	.	16cc\JJ	.	.	.
!LO:LB:g=original	!	!	!	!	!	!	!	!	!	!	!LO:PB:g=original	!	!	!
=73	=73	=73	=73	=73	=73	=73	=73	=73	=73	=73	=73	=73	=73	=73
4G\	.	.	16a/LL	.	16cc\LL	.	2.ryy	2.ryy	16a\LL	-da-	16cc\LL	-da-	2.ryy	2.ryy
.	.	.	16g/	.	16b\	.	.	.	16g\	.	16b\	.	.	.
.	.	.	16g/	.	16b\	.	.	.	16g\	.	16b\	.	.	.
.	.	.	16f#/JJ	.	16a\JJ	.	.	.	16f#\JJ	.	16a\JJ	.	.	.
4GG/	.	.	8g/L	.	8b\L	.	.	.	4g\	-tus}	4b\	-tus	.	.
.	.	.	16b/L	.	16gg\L	.	.	.	.	.	.	.	.	.
.	.	.	16dd/JJ	.	16ff#\JJ	.	.	.	.	.	.	.	.	.
!	!	!	!	!	!	!	!	!	!LO:LB:g=original	!	!	!	!	!
8r	.	.	16cc/LL	.	16ee\LL	.	.	.	8r	.	8r	.	.	.
.	.	.	16b/	.	16dd\	.	.	.	.	.	.	.	.	.
8G\	.	.	16a/	.	16cc\	.	.	.	8b\	mi-	8dd\	mi-	.	.
.	.	.	16g/JJ	.	16b\JJ	.	.	.	.	.	.	.	.	.
=74	=74	=74	=74	=74	=74	=74	=74	=74	=74	=74	=74	=74	=74	=74
8c\L	6	.	16a/LL	.	16cc\LL	.	2.ryy	2.ryy	16a\LL	-se-	16cc\LL	-se-	2.ryy	2.ryy
.	.	.	16cc/	.	16ee\	.	.	.	16cc\JJ	.	16ee\JJ	.	.	.
8c\	_	.	16b/	.	16dd\	.	.	.	16b\LL	-ri-	16dd\LL	-ri-	.	.
.	.	.	16a/JJ	.	16cc\JJ	.	.	.	16a\JJ	.	16cc\JJ	.	.	.
8d\	4	.	4g/	.	4b\	.	.	.	4g\	-cor-	4b\	-cor-	.	.
!LO:TX:t=P:problem=mixed beam	!	!	!	!	!	!	!	!	!	!	!	!	!	!
8d\	.	.	.	.	.	.	.	.	.	.	.	.	.	.
8D/	3	.	4f#/	.	4a\	.	.	.	8f#\	-diſ-	8a\L	-diſ-	.	.
8D/J	.	.	.	.	.	.	.	.	8f#\	-ae	8a\J	-ae	.	.
!	!	!	!	!	!LO:LB:g=original	!	!	!	!	!	!	!	!	!
=75	=75	=75	=75	=75	=75	=75	=75	=75	=75	=75	=75	=75	=75	=75
8G\L	.	.	8.g/L	.	8.b\L	.	2.ryy	2.ryy	8.g\L	Su-	8.b\L	Su-	2.ryy	2.ryy
16G\L	.	.	.	.	.	.	.	.	.	.	.	.	.	.
16F#\JJ	.	.	16b/Jk	.	16dd\Jk	.	.	.	16b\Jk	.	16dd\Jk	.	.	.
!LO:TX:t=P:problem=mixed beam	!	!	!	!	!	!	!	!	!	!	!	!	!	!
8G\L	.	.	4g/	.	4b\	.	.	.	4g\	-ae	4b\	-ae	.	.
8GG/	.	.	.	.	.	.	.	.	.	.	.	.	.	.
8BB/	.	.	4r	.	4r	.	.	.	4r	.	4r	.	.	.
8D/J	.	.	.	.	.	.	.	.	.	.	.	.	.	.
!	!	!	!LO:LB:g=original	!	!	!	!	!	!	!	!	!	!	!
=76	=76	=76	=76	=76	=76	=76	=76	=76	=76	=76	=76	=76	=76	=76
8G\L	.	.	4.b/	.	(4.dd\	.	2.ryy	2.ryy	(4.b\	Si-	(4.dd\	Si-	2.ryy	2.ryy
8G\	.	.	.	.	.	.	.	.	.	.	.	.	.	.
8G\	.	.	.	.	.	.	.	.	.	.	.	.	.	.
8G\	.	.	8g/	.	8b\)	.	.	.	8g\)	.	8b\)	.	.	.
!	!	!	!	!	!	!	!	!	!	!	!LO:LB:g=original	!	!	!
.	.	.	8qb/	.	8qdd/	.	.	.	8qb/	.	8qdd/	.	.	.
8G\	4 2	.	8a/L	.	8cc\L	.	.	.	8a\	-cut	8cc\	-cut	.	.
8G\J	_ _	.	16g/L	.	16b\L	.	.	.	16g\LL	lo-	16b\LL	lo-	.	.
.	.	.	16a/JJ	.	16cc\JJ	.	.	.	16a\JJ	.	16cc\JJ	.	.	.
!	!	!	!	!	!	!	!	!	!LO:LB:g=original	!	!	!	!	!
=77	=77	=77	=77	=77	=77	=77	=77	=77	=77	=77	=77	=77	=77	=77
8G\L	3	.	16b/LL	.	(16dd\LL	.	2.ryy	2.ryy	16b\LL	-cu-	16dd\LL	-cu-	2.ryy	2.ryy
.	.	.	16cc/	.	16ee\	.	.	.	16cc\JJ	.	16ee\JJ	.	.	.
8G\	.	.	16b/	.	16dd\	.	.	.	16b\LL	-tus	16dd\LL	-tus	.	.
.	.	.	16a/JJ	.	16cc\JJ)	.	.	.	16a\JJ	.	16cc\JJ	.	.	.
8G\	.	.	8g/L	.	8b`\L	.	.	.	4g\	est	4b\	est	.	.
8G\	_	.	8g/J	.	8b`\J	.	.	.	.	.	.	.	.	.
8G\	.	.	16g/LL	.	16b\LL	.	.	.	4r	.	4r	.	.	.
.	x	.	16f#/	.	16a\	.	.	.	.	.	.	.	.	.
8G\J	.	.	16g/	.	16b\	.	.	.	.	.	.	.	.	.
.	.	.	16a/JJ	.	16cc\JJ	.	.	.	.	.	.	.	.	.
!LO:LB:g=original	!	!	!	!	!	!	!	!	!	!	!	!	!	!
=78	=78	=78	=78	=78	=78	=78	=78	=78	=78	=78	=78	=78	=78	=78
8G\L	3	.	4.b/	.	(4.dd\	.	2.ryy	2.ryy	(4.b\	ad	(4.dd\	ad	2.ryy	2.ryy
8G\	.	.	.	.	.	.	.	.	.	.	.	.	.	.
8G\	.	.	.	.	.	.	.	.	.	.	.	.	.	.
8G\	.	.	8g/	.	8b\)	.	.	.	8g\)	.	8b\)	.	.	.
.	.	.	8qb/	.	8qdd/	.	.	.	8qb/	.	8qdd/	.	.	.
8G\	4 2	.	8a/L	.	8cc\L	.	.	.	8a\	pa-	8cc\	pa-	.	.
8G\J	.	.	16g/L	.	16b\L	.	.	.	16g\LL	-tres	16b\LL	-tres	.	.
.	.	.	16a/JJ	.	16cc\JJ	.	.	.	16a\JJ	.	16cc\JJ	.	.	.
=79	=79	=79	=79	=79	=79	=79	=79	=79	=79	=79	=79	=79	=79	=79
*tremolo	*	*	*	*	*	*	*	*	*	*	*	*	*	*
8G\L	3	.	16b/LL	.	(16dd\LL	.	2.ryy	2.ryy	16b\LL	noſ-	16dd\LL	noſ-	2.ryy	2.ryy
.	.	.	16cc/	.	16ee\	.	.	.	16cc\	.	16ee\	.	.	.
8G\	.	.	16b/	.	16dd\	.	.	.	16b\	.	16dd\	.	.	.
.	.	.	16a/JJ	.	16cc\JJ	.	.	.	16a\JJ	.	16cc\JJ	.	.	.
8G\	.	.	8g/L	.	8b\L)	.	.	.	4g\	-tros	4b\	-tros	.	.
8G\	.	.	8g/J	.	8b`\J	.	.	.	.	.	.	.	.	.
8G\	.	.	16g/LL	.	(16b\LL	.	.	.	8r	.	8r	.	.	.
.	.	.	16f#/	.	16a\	.	.	.	.	.	.	.	.	.
8G\J	.	.	16g/	.	16b\	.	.	.	8g\	ad	8b\	ad	.	.
.	.	.	16a/JJ	.	16cc\JJ)	.	.	.	.	.	.	.	.	.
*Xtremolo	*	*	*	*	*	*	*	*	*	*	*	*	*	*
!	!	!	!LO:LB:g=original	!	!LO:LB:g=original	!	!	!	!	!	!LO:LB:g=original	!	!	!
=80	=80	=80	=80	=80	=80	=80	=80	=80	=80	=80	=80	=80	=80	=80
8G\L	.	.	8g/L	.	8b\L	.	2.ryy	2.ryy	8g\L	pat-	8b\L	pat-	2.ryy	2.ryy
8G\	.	.	16f#/L	.	16a\L	.	.	.	16f#\L	.	16a\L	.	.	.
.	.	.	16g/JJ	.	16b\JJ	.	.	.	16g\JJ	.	16b\JJ	.	.	.
8C\	6	.	4a/	.	4cc\	.	.	.	4a\	.	4cc\	.	.	.
8C\	.	.	.	.	.	.	.	.	.	.	.	.	.	.
8D\	.	.	4f#/	.	4a\	.	.	.	4f#\	-res	4a\	-res	.	.
8D\J	.	.	.	.	.	.	.	.	.	.	.	.	.	.
!	!	!	!	!	!	!	!	!	!LO:LB:g=original	!	!	!	!	!
=81	=81	=81	=81	=81	=81	=81	=81	=81	=81	=81	=81	=81	=81	=81
*tremolo	*	*	*	*	*	*	*	*	*	*	*	*	*	*
8GG/L	.	.	16g/LL	.	16b\LL	.	2.ryy	2.ryy	16g\LL	noſ-	16b\LL	noſ-	2.ryy	2.ryy
.	.	.	16f#/	.	16a\	.	.	.	16f#\	.	16a\	.	.	.
8GG/	.	.	16g/	.	16b\	.	.	.	16g\	.	16b\	.	.	.
.	.	.	16a/JJ	.	16cc\JJ	.	.	.	16a\JJ	.	16cc\JJ	.	.	.
8GG/	.	.	8b/L	.	8dd\L	.	.	.	4b\	-tros	4dd\	-tros	.	.
8GG/	.	.	8b/J	.	8dd\J	.	.	.	.	.	.	.	.	.
8GG/	.	.	16cc/LL	.	16ee\LL	.	.	.	8r	.	8r	.	.	.
.	.	.	16b/	.	16dd\	.	.	.	.	.	.	.	.	.
8GG/J	.	.	16a/	.	16cc\	.	.	.	8g\	ad	8b\	ad	.	.
.	.	.	16g/JJ	.	16b\JJ	.	.	.	.	.	.	.	.	.
*Xtremolo	*	*	*	*	*	*	*	*	*	*	*	*	*	*
=82	=82	=82	=82	=82	=82	=82	=82	=82	=82	=82	=82	=82	=82	=82
8G\L	.	.	8g/L	.	8b\L	.	2.ryy	2.ryy	8g\	pa-	8b\	pa-	2.ryy	2.ryy
8G\	.	.	16f#/L	.	16a\L	.	.	.	16f#\LL	-tres	16a\LL	-tres	.	.
.	.	.	16g/JJ	.	16b\JJ	.	.	.	16g\JJ	.	16b\JJ	.	.	.
8C\	6	.	4a/	.	4cc\	.	.	.	4a\	noſ-	4cc\	noſ-	.	.
8C\	.	.	.	.	.	.	.	.	.	.	.	.	.	.
8D\	.	.	4f#/	.	4a\	.	.	.	4f#\	-tros	4a\	-tros	.	.
8D\J	.	.	.	.	.	.	.	.	.	.	.	.	.	.
=83	=83	=83	=83	=83	=83	=83	=83	=83	=83	=83	=83	=83	=83	=83
4G\	.	.	8.g/L	.	8.b\L	.	2.ryy	2.ryy	8.g\	A-	8.b\	A-	2.ryy	2.ryy
.	.	.	16f#/Jk	.	16a\Jk	.	.	.	16f#\	-bra-	16a\	-bra-	.	.
4GG/	.	.	8g/L	.	8b\L	.	.	.	8g\	-ham	8b\	-ham	.	.
.	.	.	16b/L	.	16gg\L	.	.	.	16b\LL	ad	16gg\LL	ad	.	.
.	.	.	16a/JJ	.	16ff#\JJ	.	.	.	16a\JJ	.	16ff#\JJ	.	.	.
!	!	!	!	!	!	!	!	!	!	!	!LO:LB:g=original	!	!	!
8r	.	.	16g/LL	.	16ee\LL	.	.	.	16g\LL	pa-	16ee\LL	pa-	.	.
.	.	.	16f#/	.	16dd\	.	.	.	16f#\JJ	.	16dd\JJ	.	.	.
8G#X\	6 5	.	16e/	.	16cc\	.	.	.	16e\LL	-tres	16cc\LL	-tres	.	.
!	!	!	!LO:TX:b:t=x	!	!	!	!	!	!	!	!	!	!	!
!	!	!	!LO:TX:a:t=x	!	!	!	!	!	!	!	!	!	!	!
.	.	.	16d/JJ	.	16b\JJ	.	.	.	16d\JJ	.	16b\JJ	.	.	.
!LO:LB:g=original	!	!	!	!	!	!	!	!	!LO:LB:g=original	!	!	!	!	!
=84	=84	=84	=84	=84	=84	=84	=84	=84	=84	=84	=84	=84	=84	=84
4A\	4	.	8.d/L	.	8.b\L	.	2.ryy	2.ryy	8.d\L	noſ-	8.b\L	noſ-	2.ryy	2.ryy
.	.	.	32c/LL	.	32a/LL	.	.	.	32c\LL	.	32a\LL	.	.	.
.	.	.	32d/JJJ	.	32b\JJJ	.	.	.	32d\JJJ	.	32b\JJJ	.	.	.
!	!	!	!LO:LB:g=original	!	!	!	!	!	!	!	!	!	!	!
4GG/	3	.	8c/L	.	8a\L	.	.	.	8c\	-tros	8a\	-tros	.	.
.	.	.	16a/L	.	16ff#\L	.	.	.	16a\LL	ad	16ff#\LL	ad	.	.
.	.	.	16g/JJ	.	16ee\JJ	.	.	.	16g\JJ	.	16ee\JJ	.	.	.
8r	.	.	16f#/LL	.	16dd\LL	.	.	.	16f#\LL	pa-	16dd\LL	pa-	.	.
.	.	.	16e/	.	16cc\	.	.	.	16e\JJ	.	16cc\JJ	.	.	.
8F#\	6 5	.	16d/	.	16b\	.	.	.	16d\LL	-tres	16b\LL	-tres	.	.
.	.	.	16c/JJ	.	16a\JJ	.	.	.	16c\JJ	.	16a\JJ	.	.	.
!	!	!	!	!	!LO:PB:g=original	!	!	!	!	!	!	!	!	!
=85	=85	=85	=85	=85	=85	=85	=85	=85	=85	=85	=85	=85	=85	=85
4Gn\	4	.	8.c/L	.	8.a/L	.	2.ryy	2.ryy	8.c/L	noſ-	8.a\L	noſ-	2.ryy	2.ryy
.	.	.	32B/LL	.	32g/LL	.	.	.	32B/LL	.	32g\LL	.	.	.
.	.	.	32c/JJJ	.	32a/JJJ	.	.	.	32c/JJJ	.	32a\JJJ	.	.	.
4GG/	3	.	8B/L	.	8g/L	.	.	.	8B/	-tros	8g\	-tros	.	.
.	.	.	16B/L	.	16g/L	.	.	.	16B/LL	{ad	16g\LL	ad	.	.
.	.	.	16c/JJ	.	16a/JJ	.	.	.	16c/JJ	.	16a\JJ	.	.	.
8r	.	.	16d/LL	.	16b\LL	.	.	.	16d\LL	pa-	16b\LL	pa-	.	.
.	.	.	16e/	.	16cc\	.	.	.	16e\JJ	.	16cc\JJ	.	.	.
8G\	.	.	16f#/	.	16dd\	.	.	.	16f#\LL	-tres	16dd\LL	-tres	.	.
.	.	.	16g/JJ	.	16b\JJ	.	.	.	16g\JJ	.	16b\JJ	.	.	.
!	!	!	!	!	!	!	!	!	!	!	!LO:LB:g=original	!	!	!
=86	=86	=86	=86	=86	=86	=86	=86	=86	=86	=86	=86	=86	=86	=86
8c\L	6	.	16a/LL	.	16cc\LL	.	2.ryy	2.ryy	16a\LL	noſ-	16cc\LL	noſ-	2.ryy	2.ryy
.	.	.	16b/	.	16dd\	.	.	.	16b\JJ	.	16dd\JJ	.	.	.
8c\	.	.	16cc/	.	16ee\	.	.	.	16cc\LL	-tros}	16ee\LL	-tros	.	.
.	.	.	16a/JJ	.	16cc\JJ	.	.	.	16a\JJ	.	16cc\JJ	.	.	.
!	!	!	!	!	!	!	!	!	!LO:LB:g=original	!	!	!	!	!
8d\	4	.	4g/	.	4b\	.	.	.	4g\	A-	4b\	A-	.	.
!LO:TX:t=P:problem=mixed beam	!	!	!	!	!	!	!	!	!	!	!	!	!	!
8d\	.	.	.	.	.	.	.	.	.	.	.	.	.	.
8D/	3	.	4f#/	.	4a\	.	.	.	4f#\	-bra-	4a\	-bra-	.	.
8D/J	.	.	.	.	.	.	.	.	.	.	.	.	.	.
=87	=87	=87	=87	=87	=87	=87	=87	=87	=87	=87	=87	=87	=87	=87
8G\L	.	.	4.g/	.	4.b\	.	2.ryy	2.ryy	4.g\	-ham	4.b\	-ham	2.ryy	2.ryy
8G\	.	.	.	.	.	.	.	.	.	.	.	.	.	.
8G\	.	.	.	.	.	.	.	.	.	.	.	.	.	.
!	!	!	!	!	!	!	!	!	!	!LO:MO:mod=et	!	!LO:MO:mod=et	!	!
8G\	.	.	16f#/LL	.	16a\LL	.	.	.	16f#\LL	&	16a\LL	&	.	.
.	.	.	16g/JJ	.	16b\JJ	.	.	.	16g\JJ	.	16b\JJ	.	.	.
.	.	.	.	.	8qdd/	.	.	.	.	.	.	.	.	.
8G\	4 2	.	8a/L	.	8cc\L	.	.	.	8a\L	Se-	8cc\L	Se-	.	.
8G\J	_ _	.	16g/L	.	16b\L	.	.	.	16g\L	.	16b\L	.	.	.
.	.	.	16a/JJ	.	16cc\JJ	.	.	.	16a\JJ	.	16cc\JJ	.	.	.
=88	=88	=88	=88	=88	=88	=88	=88	=88	=88	=88	=88	=88	=88	=88
8G\L	5 3	.	(4.b/	.	4.dd\	.	2.ryy	2.ryy	4.b\	-mi-	4.dd\	-mi-	2.ryy	2.ryy
8G\	.	.	.	.	.	.	.	.	.	.	.	.	.	.
8B\	6	.	.	.	.	.	.	.	.	.	.	.	.	.
8B\	_	.	8g/)	.	8b\	.	.	.	8g\	-ni	8b\	-ni	.	.
!	!	!	!LO:LB:g=original	!	!	!	!	!	!	!	!	!	!	!
.	.	.	8qb/	.	8qdd/	.	.	.	.	.	8qdd/	.	.	.
8d\	x	.	8a/L	.	8cc\L	.	.	.	8a\L	e-	8cc\L	e-	.	.
8d\J	.	.	16g/L	.	16b\L	.	.	.	16g\L	.	16b\L	.	.	.
.	.	.	16f#/JJ	.	16a\JJ	.	.	.	16f#\JJ	.	16a\JJ	.	.	.
!LO:LB:g=original	!	!	!	!	!	!	!	!	!	!	!	!	!	!
=89	=89	=89	=89	=89	=89	=89	=89	=89	=89	=89	=89	=89	=89	=89
8G\L	3	.	(4.g/	.	4.b\	.	2.ryy	2.ryy	4.g\	-jus	4.b\	-jus	2.ryy	2.ryy
8G\	_	.	.	.	.	.	.	.	.	.	.	.	.	.
8G\	x	.	.	.	.	.	.	.	.	.	.	.	.	.
8G\	.	.	16f#/LL	.	16a\LL	.	.	.	16f#\LL	e-	16a\LL	e-	.	.
.	.	.	16g/JJ)	.	16b\JJ	.	.	.	16g\JJ	.	16b\JJ	.	.	.
.	.	.	8qb/	.	8qdd/	.	.	.	.	.	.	.	.	.
8G\	4 2	.	8a/L	.	8cc\L	.	.	.	8a\L	.	8cc\L	.	.	.
8G\J	_ _	.	16g/L	.	16b\L	.	.	.	16g\L	.	16b\L	.	.	.
.	.	.	16a/JJ	.	16cc\JJ	.	.	.	16a\JJ	.	16cc\JJ	.	.	.
!	!	!	!	!	!LO:LB:g=original	!	!	!	!LO:PB:g=original	!	!LO:LB:g=original	!	!	!
=90	=90	=90	=90	=90	=90	=90	=90	=90	=90	=90	=90	=90	=90	=90
8G\L	3	.	(4.b/	.	4.dd\	.	2.ryy	2.ryy	4.b\	-jus	4.dd\	-jus	2.ryy	2.ryy
8G\	.	.	.	.	.	.	.	.	.	.	.	.	.	.
8B\	6	.	.	.	.	.	.	.	.	.	.	.	.	.
8B\	.	.	8g/)	.	8b\	.	.	.	8g\	in	8b\	in	.	.
.	.	.	8qb/	.	8qdd/	.	.	.	.	.	8qdd/	.	.	.
8d\	.	.	8a/L	.	8cc\L	.	.	.	8a\	Sae-	8cc\	Sae-	.	.
8d\J	.	.	16g/L	.	16b\L	.	.	.	16g\LL	-cu-	16b\LL	-cu-	.	.
.	.	.	16f#/JJ	.	16a\JJ	.	.	.	16f#\JJ	.	16a\JJ	.	.	.
=91	=91	=91	=91	=91	=91	=91	=91	=91	=91	=91	=91	=91	=91	=91
!	!	!LO:DY:rj:a:t=f&colon;	!	!LO:DY:a	!	!LO:DY:rj:a:t=f&colon;	!	!	!	!	!	!	!	!
8G\L	.	f	8b\L	f	2gg\	f	2.ryy	2.ryy	4g\	-la	4b\	-la	2.ryy	2.ryy
8G\	.	.	8b\	.	.	.	.	.	.	.	.	.	.	.
8G\	.	.	8b\	.	.	.	.	.	4r	.	4r	.	.	.
8G\	.	.	8b\	.	.	.	.	.	.	.	.	.	.	.
8G\	.	.	8b\	.	16aa\LL	.	.	.	4r	.	4r	.	.	.
.	.	.	.	.	16gg\	.	.	.	.	.	.	.	.	.
8G\J	.	.	8b\J	.	16ff#\	.	.	.	.	.	.	.	.	.
.	.	.	.	.	16gg\JJ	.	.	.	.	.	.	.	.	.
!	!	!	!	!	!	!	!	!	!LO:LB:g=original	!	!	!	!	!
=92	=92	=92	=92	=92	=92	=92	=92	=92	=92	=92	=92	=92	=92	=92
8G\L	6 4	.	8cc\L	.	4.ee\	.	2.ryy	2.ryy	0.r	.	0.r	.	2.ryy	2.ryy
8G\	_ _	.	8cc\	.	.	.	.	.	.	.	.	.	.	.
8G\	.	.	8cc\	.	.	.	.	.	.	.	.	.	.	.
8G\	x	.	8cc\	.	16dd\LL	.	.	.	.	.	.	.	.	.
.	.	.	.	.	16ee\JJ	.	.	.	.	.	.	.	.	.
8G\	5 3	.	8b\	.	16dd\LL	.	.	.	.	.	.	.	.	.
.	.	.	.	.	16gg\	.	.	.	.	.	.	.	.	.
8G\J	.	.	8b\J	.	16bb\	.	.	.	.	.	.	.	.	.
.	.	.	.	.	16gg\JJ	.	.	.	.	.	.	.	.	.
!	!	!	!LO:LB:g=original	!	!	!	!	!	!	!	!	!	!	!
=93	=93	=93	=93	=93	=93	=93	=93	=93	=93	=93	=93	=93	=93	=93
8d\L	4	.	8b/L	.	8.gg\L	.	2.ryy	2.ryy	.	.	.	.	2.ryy	2.ryy
8d\	.	.	16a/L	.	.	.	.	.	.	.	.	.	.	.
.	.	.	16b/JJ	.	32ff#\LL	.	.	.	.	.	.	.	.	.
.	.	.	.	.	32gg\JJJ	.	.	.	.	.	.	.	.	.
8D\	3	.	8a/L	.	8ff#\L	.	.	.	.	.	.	.	.	.
8D\	.	.	8a/	.	16aa\L	.	.	.	.	.	.	.	.	.
.	.	.	.	.	16ff#\JJ	.	.	.	.	.	.	.	.	.
8F#\	6 5	.	8a/	.	16dd\LL	.	.	.	.	.	.	.	.	.
.	.	.	.	.	16ee\	.	.	.	.	.	.	.	.	.
8F#\J	.	.	8a/J	.	16dd\	.	.	.	.	.	.	.	.	.
.	.	.	.	.	16cc\JJ	.	.	.	.	.	.	.	.	.
!LO:PB:g=original	!	!	!	!	!	!	!	!	!	!	!	!	!	!
=94	=94	=94	=94	=94	=94	=94	=94	=94	=94	=94	=94	=94	=94	=94
4G\	4	.	8a/L	.	8cc\L	.	2.ryy	2.ryy	.	.	.	.	2.ryy	2.ryy
.	.	.	16g/L	.	16b\L	.	.	.	.	.	.	.	.	.
.	.	.	16a/JJ	.	16cc\JJ	.	.	.	.	.	.	.	.	.
4GG/	3	.	4g/	.	8b\L	.	.	.	.	.	.	.	.	.
.	.	.	.	.	16b\L	.	.	.	.	.	.	.	.	.
.	.	.	.	.	16cc\JJ	.	.	.	.	.	.	.	.	.
8r	.	.	8r	.	16dd\LL	.	.	.	.	.	.	.	.	.
.	.	.	.	.	16ee\	.	.	.	.	.	.	.	.	.
8B\	6	.	8d/	.	16ff#\	.	.	.	.	.	.	.	.	.
.	.	.	.	.	16gg\JJ	.	.	.	.	.	.	.	.	.
!	!	!	!	!	!LO:LB:g=original	!	!	!	!	!	!	!	!	!
=95	=95	=95	=95	=95	=95	=95	=95	=95	=95	=95	=95	=95	=95	=95
8c\L	.	.	4.e/	.	4.ee\	.	2.ryy	2.ryy	.	.	.	.	2.ryy	2.ryy
8c\	.	.	.	.	.	.	.	.	.	.	.	.	.	.
8c\	.	.	.	.	.	.	.	.	.	.	.	.	.	.
8c\	.	.	16d/LL	.	16dd\LL	.	.	.	.	.	.	.	.	.
.	.	.	16e/JJ	.	16ee\JJ	.	.	.	.	.	.	.	.	.
.	.	.	8qg/	.	.	.	.	.	.	.	.	.	.	.
8A\	6 3	.	8f#/L	.	8ff#\L	.	.	.	.	.	.	.	.	.
8A\J	.	.	16e/L	.	16ee\L	.	.	.	.	.	.	.	.	.
.	.	.	16f#/JJ	.	16ff#\JJ	.	.	.	.	.	.	.	.	.
=96	=96	=96	=96	=96	=96	=96	=96	=96	=96	=96	=96	=96	=96	=96
8B\L	6	.	8.g/L	.	8.gg\L	.	2.ryy	2.ryy	0.r	.	0.r	.	2.ryy	2.ryy
8B\	.	.	.	.	.	.	.	.	.	.	.	.	.	.
.	.	.	32a/LL	.	32aa\LL	.	.	.	.	.	.	.	.	.
.	.	.	32b/JJJ	.	32bb\JJJ	.	.	.	.	.	.	.	.	.
8F#\	6 5	.	8cc\L	.	8ccc\L	.	.	.	.	.	.	.	.	.
8F#\	.	.	8cc\J	.	8ccc\J	.	.	.	.	.	.	.	.	.
8G\	.	.	16cc\LL	.	16ccc\LL	.	.	.	.	.	.	.	.	.
.	.	.	16b\	.	16bb\	.	.	.	.	.	.	.	.	.
8G\J	.	.	16dd\	.	16ddd\	.	.	.	.	.	.	.	.	.
.	.	.	16b\JJ	.	16bb\JJ	.	.	.	.	.	.	.	.	.
!	!	!	!LO:LB:g=original	!	!	!	!	!	!	!	!	!	!	!
=97	=97	=97	=97	=97	=97	=97	=97	=97	=97	=97	=97	=97	=97	=97
8c\L	6	.	16cc\LL	.	16aa\LL	.	2.ryy	2.ryy	.	.	.	.	2.ryy	2.ryy
.	.	.	16dd\	.	16bb\	.	.	.	.	.	.	.	.	.
8c\	_	.	16ee\	.	16ccc\	.	.	.	.	.	.	.	.	.
.	.	.	16cc\JJ	.	16aa\JJ	.	.	.	.	.	.	.	.	.
8d\	4	.	4b/	.	4gg\	.	.	.	.	.	.	.	.	.
!LO:TX:t=P:problem=mixed beam	!	!	!	!	!	!	!	!	!	!	!	!	!	!
8d\	.	.	.	.	.	.	.	.	.	.	.	.	.	.
8D/	3	.	4a/	.	4ff#\	.	.	.	.	.	.	.	.	.
8D/J	.	.	.	.	.	.	.	.	.	.	.	.	.	.
=98	=98	=98	=98	=98	=98	=98	=98	=98	=98	=98	=98	=98	=98	=98
8G\L	3	.	4.b\	.	4.gg\	.	2.ryy	2.ryy	.	.	.	.	2.ryy	2.ryy
8G\	_	.	.	.	.	.	.	.	.	.	.	.	.	.
8G\	.	.	.	.	.	.	.	.	.	.	.	.	.	.
8G\	x	.	16a\LL	.	16aa\LL	.	.	.	.	.	.	.	.	.
.	.	.	16b\JJ	.	16gg\JJ	.	.	.	.	.	.	.	.	.
.	.	.	8qee/	.	8qgg/	.	.	.	.	.	.	.	.	.
8G\	7n 5	.	8dd\L	.	8ffn\L	.	.	.	.	.	.	.	.	.
!LO:TX:b:t=+	!	!	!	!	!	!	!	!	!	!	!	!	!	!
8G\J	_ _	.	16cc\L	.	16ee\L	.	.	.	.	.	.	.	.	.
.	.	.	16dd\JJ	.	16ff\JJ	.	.	.	.	.	.	.	.	.
!LO:LB:g=original	!	!	!	!	!	!	!	!	!	!	!	!	!	!
=99	=99	=99	=99	=99	=99	=99	=99	=99	=99	=99	=99	=99	=99	=99
8G\L	6 4	.	8cc\	.	8ee\	.	2.ryy	2.ryy	.	.	.	.	2.ryy	2.ryy
!	!	!	!	!	!	!LO:DY:t=sf&colon;	!	!	!	!	!	!	!	!
8G\	.	.	4ee\	sfz	4ccc\	sf	.	.	.	.	.	.	.	.
8G\	_ _	.	.	.	.	.	.	.	.	.	.	.	.	.
8G\	x	.	8cc\	.	8aa\	.	.	.	.	.	.	.	.	.
.	.	.	8qb/	.	8qgg/	.	.	.	.	.	.	.	.	.
8G\	7 2	.	8a/L	.	8ff#X\L	.	.	.	.	.	.	.	.	.
8G\J	_ _	.	16g/L	.	16ee\L	.	.	.	.	.	.	.	.	.
.	.	.	16a/JJ	.	16ff#\JJ	.	.	.	.	.	.	.	.	.
!	!	!	!	!	!LO:LB:g=original	!	!	!	!	!	!	!	!	!
=100	=100	=100	=100	=100	=100	=100	=100	=100	=100	=100	=100	=100	=100	=100
!	!	!	!	!	!	!LO:DY:t=p&colon;	!	!	!	!	!	!	!	!
8G\L	8 3	.	(4.b\	.	4.gg\	p	2.ryy	2.ryy	1.r	.	1.r	.	2.ryy	2.ryy
8G\	_ _	.	.	.	.	.	.	.	.	.	.	.	.	.
8G\	.	.	.	.	.	.	.	.	.	.	.	.	.	.
8G\	x	.	16a\LL)	.	16aa\LL	.	.	.	.	.	.	.	.	.
.	.	.	16b\JJ	.	16gg\JJ	.	.	.	.	.	.	.	.	.
.	.	.	8qee/	.	8qgg/	.	.	.	.	.	.	.	.	.
8G\	7n 5	.	8dd\L	.	8ffn\L	.	.	.	.	.	.	.	.	.
8G\J	_ _	.	16cc\L	.	16ee\L	.	.	.	.	.	.	.	.	.
.	.	.	16dd\JJ	.	16ff\JJ	.	.	.	.	.	.	.	.	.
!	!	!	!LO:LB:g=original	!	!	!	!	!	!	!	!	!	!	!
=101	=101	=101	=101	=101	=101	=101	=101	=101	=101	=101	=101	=101	=101	=101
8G\L	6 4	.	8cc\	.	8ee\	.	2.ryy	2.ryy	.	.	.	.	2.ryy	2.ryy
8G\	_ _	.	4ee\	sfz	4ccc\	.	.	.	.	.	.	.	.	.
8G\	.	.	.	.	.	.	.	.	.	.	.	.	.	.
8G\	x	.	8cc\	.	8aa\	.	.	.	.	.	.	.	.	.
.	.	.	8qb/	.	8qgg/	.	.	.	.	.	.	.	.	.
8G\	7# 2	.	8a/L	.	8ff#X\L	.	.	.	.	.	.	.	.	.
8G\J	.	.	16g/L	.	16ee\L	.	.	.	.	.	.	.	.	.
.	_ _	.	16a/JJ	.	16ff#\JJ	.	.	.	.	.	.	.	.	.
=102	=102	=102	=102	=102	=102	=102	=102	=102	=102	=102	=102	=102	=102	=102
4G\	.	.	(4a/	.	(4ff#\	.	2.ryy	2.ryy	2.r	.	2.r	.	2.ryy	2.ryy
4GG/	3	.	4b/)	.	4gg\)	.	.	.	.	.	.	.	.	.
4r	.	.	4r	.	4r	.	.	.	.	.	.	.	.	.
==	==	==	==	==	==	==	==	==	==	==	==	==	==	==
*-	*-	*-	*-	*-	*-	*-	*-	*-	*-	*-	*-	*-	*-	*-
!!!system-decoration: [(s1,s2)][(s3,s4,s5,s6)][(s7,s8)][(s9)]
!!!RDF**dynam: p = pio:
!!!RDF**dynam: f =
!!!RDF**kern: > = above
!!!RDF**kern: < = below
!!!ENC: Marta Chmielewska
!!!END: 2020-07-16
!!!ENC: Leszek Kubiak
!!!END: 2022-01-13
!!!YEC: Copyright 2022 Narodowy Instytut Fryderyka Chopina (https://polishscores.org)
!!!YEM: License CC-BY-4.0 (https://creativecommons.org/licenses/by/4.0)
